!!!!SEGMENT: pl-wtm--r-139-m_moniuszko-stanislaw--paria-hymn-do-bostwa-milosci.krn
!!!cenid: 18xx:2988
!!!COM: Moniuszko, Stanisław
!!!COM-rismID: pe30008351
!!!CDT: 1819/05/05-1872/06/04
!!!CNT: Polish
!!!OPR: Paria
!!!OTL: Hymn do bóstwa miłości
!!!PDT:
!!!AGN: Secular
!!!YEC: Copyright 2022 Narodowy Instytut Fryderyka Chopina (https://polishscores.org)
!!!YEM: License CC-BY-4.0 (https://creativecommons.org/licenses/by/4.0)
!!!SMS-siglum: PL-Wtm
!!!SMS-shelfmark: R 139/M
!!!SMS-shelfwork: M
!!!SMS-variant:
!!!SMS-altvar:
!!!NIFC-rismSourceID: 1001090832
!!!NIFC-rismChildID: 1001090832
!!!NIFC-islandoraID:
!!!URL-pdf-islandora:
!!!URL-scan:
!!!IIIF:
!!!ONB-nifc: UWAGA: skany 0016-0023
!!!OMD: Allegretto.
!!!AIN: 2 forte 1 soprn 2 vox
!!!key:
**kern	**kern	**dynam	**kern	**text	**text	**dynam	**kern	**text	**dynam	**kern	**text	**text	**text	**dynam
*part5	*part4	*	*part3	*	*	*	*part2	*	*	*part1	*	*	*	*
*staff5	*staff4	*	*staff3	*	*	*	*staff2	*	*	*staff1	*	*	*	*
*Iforte	*Iforte	*	*Ivox	*	*	*	*Ivox	*	*	*Isoprn	*	*	*	*
*I"[Fortepian]	*I"[Fortepian]	*	*I"Chor.	*	*	*	*I"Chor.	*	*	*I"[Soprano]	*	*	*	*
*clefF4	*clefG2	*	*clefG2	*	*	*	*clefG2	*	*	*clefG2	*	*	*	*
*kcancel	*kcancel	*	*kcancel	*	*	*	*kcancel	*	*	*kcancel	*	*	*	*
*k[f#c#g#d#a#]	*k[f#c#g#d#a#]	*	*k[f#c#g#d#a#]	*	*	*	*k[f#c#g#d#a#]	*	*	*k[f#c#g#d#a#]	*	*	*	*
*B:	*B:	*	*B:	*	*	*	*B:	*	*	*B:	*	*	*	*
*M6/8	*M6/8	*	*M6/8	*	*	*	*M6/8	*	*	*M6/8	*	*	*	*
=1	=1	=1	=1	=1	=1	=1	=1	=1	=1	=1	=1	=1	=1	=1
*	*^	*	*	*	*	*	*	*	*	*	*	*	*	*
*2\right	*2\right	*2\right	*2\right	*2\right	*2\right	*2\right	*2\right	*2\right	*2\right	*2\right	*2\right	*2\right	*2\right	*2\right	*2\right
*clefG2	*	*	*	*	*	*	*	*	*	*	*	*	*	*	*
!!LO:TX:t=P:problem:all\left, middle, right:global
!LO:TX:b:t=19:color=dodgerblue:rj	!	!	!	!	!	!	!	!	!	!	!	!	!	!	!
!LO:TX:t=P:znaki:problem=A# zamiast AA#	!LO:TX:t=P:problem=znaki f# zamiast ff#, g# zamiast gg#	!	!	!	!	!	!	!LO:TX:t=P:problem=znaki f# zamiast ff#, g# zamiast gg#	!	!	!LO:TX:t=P:znaki:problem= f# zamiast ff#, g# zamiast gg#	!	!	!	!
([4.e^/	([4.cc#^/	2.an 2.f#\	.	2.ryy	.	.	.	2.r	.	.	2.r	.	.	.	.
!	!LO:TX:b:t=17:color=red	!	!	!	!	!	!	!	!	!	!	!	!	!	!
4e/]	4cc#/]	.	.	.	.	.	.	.	.	.	.	.	.	.	.
8d#/)	8b#X/)	.	.	.	.	.	.	.	.	.	.	.	.	.	.
=2	=2	=2	=2	=2	=2	=2	=2	=2	=2	=2	=2	=2	=2	=2	=2
*rep	*rep	*rep	*	*	*	*	*	*	*	*	*	*	*	*	*
([4.e^/	([4.cc#^/	2.an 2.f#\	.	2.ryy	.	.	.	2.r	.	.	2.r	.	.	.	.
!	!LO:TX:b:t=18:color=red	!	!	!	!	!	!	!	!	!	!	!	!	!	!
4e/]	4cc#/]	.	.	.	.	.	.	.	.	.	.	.	.	.	.
8d#/)	8b#X/)	.	.	.	.	.	.	.	.	.	.	.	.	.	.
*Xrep	*Xrep	*Xrep	*	*	*	*	*	*	*	*	*	*	*	*	*
=3	=3	=3	=3	=3	=3	=3	=3	=3	=3	=3	=3	=3	=3	=3	=3
!	!	!LO:SIC:v:s=4.an 4.f#\	!	!	!	!	!	!	!	!	!	!	!	!	!
4e/	4cc#/	4.a# 4.f#\	.	2.ryy	.	.	.	2.r	.	.	2.r	.	.	.	.
8d#/	8b#X/	.	.	.	.	.	.	.	.	.	.	.	.	.	.
!	!LO:TX:b:t=19:color=red	!	!	!	!	!	!	!	!	!	!	!	!	!	!
!	!	!LO:SIC:v:s=4.an 4.f#\	!	!	!	!	!	!	!	!	!	!	!	!	!
4d#/	4b#/	4.a# 4.f#\	.	.	.	.	.	.	.	.	.	.	.	.	.
8e/	8cc#/	.	.	.	.	.	.	.	.	.	.	.	.	.	.
=4	=4	=4	=4	=4	=4	=4	=4	=4	=4	=4	=4	=4	=4	=4	=4
!	!	!LO:SIC:v:s=2.an 2.f#\	!	!	!	!	!	!	!	!	!	!	!	!	!
(4.e/	(4.cc#^/	2.a# 2.f#\	.	2.ryy	.	.	.	2.r	.	.	2.r	.	.	.	.
!	!LO:TX:b:t=20:color=red	!	!	!	!	!	!	!	!	!	!	!	!	!	!
4.d#/)	4.b#X/)	.	.	.	.	.	.	.	.	.	.	.	.	.	.
*	*v	*v	*	*	*	*	*	*	*	*	*	*	*	*	*
=5	=5	=5	=5	=5	=5	=5	=5	=5	=5	=5	=5	=5	=5	=5
[4.e^/	2.b 2.an 2.f#/	.	2.ryy	.	.	.	2.r	.	.	2.r	.	.	.	.
4e/]	.	.	.	.	.	.	.	.	.	.	.	.	.	.
8d#/	.	.	.	.	.	.	.	.	.	.	.	.	.	.
=6	=6	=6	=6	=6	=6	=6	=6	=6	=6	=6	=6	=6	=6	=6
*rep	*rep	*	*	*	*	*	*	*	*	*	*	*	*	*
[4.e^/	2.b 2.an 2.f#/	.	2.ryy	.	.	.	2.r	.	.	2.r	.	.	.	.
4e/]	.	.	.	.	.	.	.	.	.	.	.	.	.	.
8d#/	.	.	.	.	.	.	.	.	.	.	.	.	.	.
*Xrep	*Xrep	*	*	*	*	*	*	*	*	*	*	*	*	*
=7	=7	=7	=7	=7	=7	=7	=7	=7	=7	=7	=7	=7	=7	=7
(4e^/	2.b 2.an 2.f#/	.	2.ryy	.	.	.	2.r	.	.	2.r	.	.	.	.
8d#/)	.	.	.	.	.	.	.	.	.	.	.	.	.	.
(4d#/	.	.	.	.	.	.	.	.	.	.	.	.	.	.
8dn/)	.	.	.	.	.	.	.	.	.	.	.	.	.	.
=8	=8	=8	=8	=8	=8	=8	=8	=8	=8	=8	=8	=8	=8	=8
*	*^	*	*	*	*	*	*	*	*	*	*	*	*	*
(4.d#^/	2.b 2.g#/	(>4.f#\	.	2.ryy	.	.	.	2.r	.	.	2.r	.	.	.	.
4.c#/)	.	4.e#X\)	.	.	.	.	.	.	.	.	.	.	.	.	.
!!linebreak:original
*clefF4	*	*	*	*	*	*	*	*	*	*	*	*	*	*	*
=9	=9	=9	=9	=9	=9	=9	=9	=9	=9	=9	=9	=9	=9	=9	=9
([4.c#\	[4.b 4.gn^/	2.e\	.	2.ryy	.	.	.	2.r	.	.	2.r	.	.	.	.
4c#\]	4b] 4g/	.	.	.	.	.	.	.	.	.	.	.	.	.	.
8F#\)	8a# 8f#/	.	.	.	.	.	.	.	.	.	.	.	.	.	.
=10	=10	=10	=10	=10	=10	=10	=10	=10	=10	=10	=10	=10	=10	=10	=10
*rep	*rep	*rep	*	*	*	*	*	*	*	*	*	*	*	*	*
([4.c#\	[4.b 4.gn^/	2.e\	.	2.ryy	.	.	.	4r	.	.	4r	.	.	.	.
!	!	!	!	!	!	!	!	!	!	!	!LO:TX:a:t=4. Soli:note=podkreślone	!	!	!	!
.	.	.	.	.	.	.	.	8r	.	.	8r	.	.	.	.
!	!	!	!	!	!	!	!	!LO:TX:a:t=Chór:note=podkreślone	!	!	!	!	!	!	!
4c#\]	4b] 4g/	.	.	.	.	.	.	4r	.	.	4ryy	.	.	.	.
8F#\)	8a# 8f#/	.	.	.	.	.	.	8f#/	Na	.	8f#/	na	.	.	.
*Xrep	*Xrep	*Xrep	*	*	*	*	*	*	*	*	*	*	*	*	*
*	*v	*v	*	*	*	*	*	*	*	*	*	*	*	*	*
=11	=11	=11	=11	=11	=11	=11	=11	=11	=11	=11	=11	=11	=11	=11
!	!	!	!LO:TX:t=P:problem=w tt. nr 11-26 partie chóralne na wspólnej pięciolinii; w Humdrumie należy ją przenieść [konsultacja J.I.]	!	!	!	!	!	!	!	!	!	!	!
8FF#'/	4b 4gn 4e/	.	4e>/	.	.	.	4gn/	czo-	.	(4b/	czo-	.	.	.
(8C#\L	.	.	.	.	.	.	.	.	.	.	.	.	.	.
8F#\J	8a#X 8f#/	.	8e>/	.	.	.	8f#/	-le	.	8a#X/)	.	.	.	.
8c#\L)	8a#L 8f#/	.	8e>/	.	.	.	8f#/	kwiat	.	8a#/L	-le	.	.	.
!	!LO:SIC:v:s=8g# 8e/	!	!	!	!	!	!	!	!	!	!	!	!	!
8A#'\	8g 8e/	.	8ryy	.	.	.	8r	.	.	8g#/J	.	.	.	.
8F#'\J	8f#J 8e/	.	8e>/	.	.	.	8f#/	a	.	8f#/	ma	.	.	.
=12	=12	=12	=12	=12	=12	=12	=12	=12	=12	=12	=12	=12	=12	=12
*	*^	*	*	*	*	*	*	*	*	*	*	*	*	*
8FF#/	4dd#/	4f# 4d#\	.	8d#>/	.	.	.	8f#/	w_rę-	.	[4.dd#\	kwiat	.	.	.
(8D#\L	.	.	.	8ryy	.	.	.	8r	.	.	.	.	.	.	.
8F#\J	8f# 8d#/	8ryy	.	8d#>/	.	.	.	8f#/	-ku	.	.	.	.	.	.
8B\L)	4f# 4d#/	4.ryy	.	8d#>/	.	.	.	8f#/	kłos	.	4dd#\]	.	.	.	.
8F#'\	.	.	.	8ryy	.	.	.	8r	.	.	.	.	.	.	.
8D#'\J	8b 8f# 8d#/	.	.	8d#>/	.	.	.	8f#/	pod	.	8b\	pod	.	.	.
*	*v	*v	*	*	*	*	*	*	*	*	*	*	*	*	*
=13	=13	=13	=13	=13	=13	=13	=13	=13	=13	=13	=13	=13	=13	=13
*	*	*	*	*	*	*	*	*ij	*	*	*	*	*	*
8FF#/	4b 4f# 4e/	.	4e>/	.	.	.	4f#/	sto-	.	4b/	sto-	.	.	.
(8C#\L	.	.	.	.	.	.	.	.	.	.	.	.	.	.
8F#\J	8a# 8f# 8e/	.	8e>/	.	.	.	8f#/	-pą	.	8a#/	-pą	.	.	.
8c#\L)	8a#L 8e/	.	8e>/	.	.	.	8f#/	gnie-	.	8a#/L	gnie-	.	.	.
8B'\	8g#/	.	8ryy	.	.	.	8r	.	.	8g#/J	.	.	.	.
8A#'\J	8f#J 8e/	.	8e>/	.	.	.	8f#/	-cie	.	8f#/	-cie	.	.	.
=14	=14	=14	=14	=14	=14	=14	=14	=14	=14	=14	=14	=14	=14	=14
8BB/	4dd# 4f# 4d#/	.	4.d#>/	.	.	.	4.f#/	wę-	.	4.dd#\	wę-	.	.	.
(8D#\L	.	.	.	.	.	.	.	.	.	.	.	.	.	.
8F#\J	8f# 8d#/	.	.	.	.	.	.	.	.	.	.	.	.	.
8B\L)	4b 4f# 4d#/	.	8d#>/	.	.	.	8f#/	-ża	.	8b\	-ża	.	.	.
8F#'\	.	.	8ryy	.	.	.	8r	.	.	8r	.	.	.	.
!	!LO:TX:b:t=30:color=red:rj	!	!	!	!	!	!	!	!	!	!	!	!	!
8D#'\J	8dd# 8b 8f#/	.	8d#>/	.	.	.	8b/	u-	.	8dd#\	u-	.	.	.
=15	=15	=15	=15	=15	=15	=15	=15	=15	=15	=15	=15	=15	=15	=15
!LO:TX:b:t=20:color=dodgerblue	!LO:N:xstem	!	!	!	!	!	!	!	!	!	!	!	!	!
8FF#/	4ff# 4a#X 4f#/	.	4c#>/	.	.	.	4a#X/	-żyź-	.	4ff#\	-żyź-	.	.	.
(8C#\L	.	.	.	.	.	.	.	.	.	.	.	.	.	.
8F#\J	8cc# 8a# 8f#/	.	8c#>/	.	.	.	8a#/	-nia	.	8cc#\	-nia	.	.	.
!	!LO:N:xstem	!	!	!	!	!	!	!	!	!	!	!	!	!
8c#\L)	4cc# 4a# 4f#/	.	8c#>/	.	.	.	8a#/	kwiat	.	4cc#\	kwiat	.	.	.
8F#'\	.	.	8ryy	.	.	.	8r	.	.	.	.	.	.	.
.	8qee#X/	.	.	.	.	.	.	.	.	.	.	.	.	.
8C#'\J	8dd# 8a# 8f#/	.	8f#>/	.	.	.	8a#/	per	.	8dd#\	per-	.	.	.
!!linebreak:original
=16	=16	=16	=16	=16	=16	=16	=16	=16	=16	=16	=16	=16	=16	=16
8C#\	4cc# 4e#X/	.	4e#X>/	.	.	.	4g#/	.	.	4cc#\	-ła-	.	.	.
(8G#\L	.	.	.	.	.	.	.	.	.	.	.	.	.	.
8B\J	8g# 8e#/	.	8c#>/	.	.	.	8e#X/	.	.	8g#/	-mi	.	.	.
8c#\L)	4g# 4e#/	.	8c#>/	.	.	.	8e#/	.	.	8g#/	ros,	.	.	.
8B'\	.	.	8ryy	.	.	.	8r	.	.	8r	.	.	.	.
8G#'\J	8b 8e#/	.	8c#>/	.	.	.	8e#/	.	.	8b/	mi-	.	.	.
=17	=17	=17	=17	=17	=17	=17	=17	=17	=17	=17	=17	=17	=17	=17
!	!	!	!	!	!	!	!LO:ACC:color=dodgerblue	!	!	!LO:TX:t=x:rj	!	!	!	!
(8F#\L	(>8a#L 8e/	.	8c#>/	.	.	.	8en/	.	.	8a#/L	-ło-	.	.	.
8B\	8g#/)	.	8ryy	.	.	.	8r	.	.	8g#/J	.	.	.	.
8A#\J	8f#J 8e/	.	8f#>@\	.	.	.	8f#@/	.	.	8f#/	-ścią	.	.	.
8G#\L	4dd# 4f#/	.	4f#>\	.	.	.	4f#/	.	.	4dd#/	ser-	.	.	.
8F#\)	.	.	.	.	.	.	.	.	.	.	.	.	.	.
8A#\J	8cc# 8e/	.	8e>/	.	.	.	8f#/	.	.	8cc#/	-ca	.	.	.
=18	=18	=18	=18	=18	=18	=18	=18	=18	=18	=18	=18	=18	=18	=18
8B 8BB\	4b 4d#/	.	4.d#>/	.	.	.	4.f#/	.	.	4.b/	sprzę-	.	.	.
(8F#\L	.	.	.	.	.	.	.	.	.	.	.	.	.	.
8d#\J	8f# 8d#/	.	.	.	.	.	.	.	.	.	.	.	.	.
8B\L	4f# 4d#/	.	8d#>/	.	.	.	8f#/	.	.	8b/	-ža.	.	.	.
8D#\)	.	.	8ryy	.	.	.	8r	.	.	8r	.	.	.	.
8F#'\J	8b 8f# 8d#/	.	8B>/	.	.	.	8d#/	Z_niej	.	8b/	Z_niej	.	.	.
=19	=19	=19	=19	=19	=19	=19	=19	=19	=19	=19	=19	=19	=19	=19
8FF#/	4b 4f# 4e/	.	4c#>/	.	.	.	4e/	try-	.	4b/	try-	.	.	.
(8C#\L	.	.	.	.	.	.	.	.	.	.	.	.	.	.
8F#\J	8a# 8f# 8e/	.	8c#>/	.	.	.	8e/	-ska	.	8a#/	-ska	.	.	.
8c#\L)	(>8a#L 8e/	.	8c#>/	.	.	.	8e/	płód,	.	8a#/L	płód,	.	.	.
8G#'\	8g#/)	.	8ryy	.	.	.	8r	.	.	8g#/J	.	.	.	.
8A#'\J	8f#J 8e/	.	8c#>/	.	.	.	8e/	z_niej	.	8f#/	z_niej	.	.	.
*	*	*	*	*	*	*	*	*Xij	*	*	*	*	*	*
=20	=20	=20	=20	=20	=20	=20	=20	=20	=20	=20	=20	=20	=20	=20
8BB'/	4b 4f# 4d#/	.	4B>/	.	.	.	4d#/	žy-	.	[4.dd#\	žy-	.	.	.
(8D#\L	.	.	.	.	.	.	.	.	.	.	.	.	.	.
8F#\J	8f# 8d#/	.	8d#>/	.	.	.	8f#/	-cie	.	.	.	.	.	.
8B\L)	4f# 4d#/	.	8d#>/	.	.	.	8f#/	drga	.	4dd#\]	.	.	.	.
8D#'\	.	.	8ryy	.	.	.	8r	.	.	.	.	.	.	.
*	*	*	*	*	*	*	*	*color:dodgerblue	*	*	*	*	*	*
8F#'\J	8b 8f# 8d#/	.	8B>/	.	.	.	8d#/	z_nią	.	8b\	-cie	.	.	.
=21	=21	=21	=21	=21	=21	=21	=21	=21	=21	=21	=21	=21	=21	=21
*	*	*	*	*	*	*	*	*color:auto	*	*	*	*	*	*
8FF#'/	(8bL 8e/	.	4c#>/	.	.	.	4e/	wszyst-	.	8b,/	drga,	.	.	.
*	*	*	*	*	*	*	*	*	*	*	*above	*	*	*
*	*	*	*	*	*	*	*	*	*	*	*color:dodgerblue	*	*	*
(8C#\L	8a#/	.	.	.	.	.	.	.	.	8a#/	i	[[i	[[wszy-	.
8F#\J	8bJ) 8e/	.	8c#>/	.	.	.	8e/	-ko	.	8b/	z_niej	nią]]	-stko]]	.
*	*	*	*	*	*	*	*	*	*	*	*color:auto	*	*	*
*	*	*	*	*	*	*	*	*	*	*	*below	*	*	*
8c#\L	(8a#L 8e/	.	8c#>/	.	.	.	8e/	tchnie	.	(8a#/L	tchnie	.	.	.
8B\)	8g#/)	.	8ryy	.	.	.	8r	.	.	8g#/J)	.	.	.	.
8A#'\J	8f#J 8e/	.	8c#>/	.	.	.	8e/	w_prze	.	8f#/	w_prze-	.	.	.
!!pagebreak:original
=22	=22	=22	=22	=22	=22	=22	=22	=22	=22	=22	=22	=22	=22	=22
8BB'/	4dd# 4f# 4d#/	.	4.B>\	.	.	.	(4d#/	.	.	4.dd#/	-strze-	.	.	.
(8D#\L	.	.	.	.	.	.	.	.	.	.	.	.	.	.
8F#\J	8b 8f# 8d#/	.	.	.	.	.	8b/)	.	.	.	.	.	.	.
8B\L)	8b 8f# 8d#/	.	8d#>\	.	.	.	8f#/	.	.	8b/	-ni,	.	.	.
8D#'\	8r	.	8ryy	.	.	.	8r	.	.	8r	.	.	.	.
8F#'\J	(8dd# 8d#/	.	8d#>'/	.	.	.	8b'/	.	.	8dd#\	bo-	.	.	.
=23	=23	=23	=23	=23	=23	=23	=23	=23	=23	=23	=23	=23	=23	=23
*	*^	*	*	*	*	*	*	*	*	*	*	*	*	*
!	!	!	!	!	!	!	!	!	!	!	!LO:TX:a:t=x:rj	!	!	!	!
8FF#/	4ff# 4f#/)	4.ryy	.	4c#>/	.	.	.	4a#X/	.	.	4ff#\	-gi-	.	.	.
(8C#\L	.	.	.	.	.	.	.	.	.	.	.	.	.	.	.
8F#\J	8cc# 8a# 8f#'/	.	.	8f#>/	.	.	.	8a#/	.	.	8cc#\	-ni	.	.	.
8c#\L)	(8cc#/L	4a# 4f#\	.	8f#>/	.	.	.	8a#/	.	.	(8cc#\L	cnót,	.	.	.
8A#\	8ee#X/	.	.	8ryy	.	.	.	8r	.	.	8ee#X\J)	.	.	.	.
8F#\J	8dd#/J	8a# 8f#\	.	8f#>/	.	.	.	8a#/	.	.	8dd#\	niech	.	.	.
*	*v	*v	*	*	*	*	*	*	*	*	*	*	*	*	*
=24	=24	=24	=24	=24	=24	=24	=24	=24	=24	=24	=24	=24	=24	=24
8FF#/	8cc# 8e#X/)	.	4e#X>/	.	.	.	4g#/	.	.	4cc#\	ja-	.	.	.
(8C#\L	8r	.	.	.	.	.	.	.	.	.	.	.	.	.
8G#\J	8g# 8e#/	.	8e#>/	.	.	.	8g#/	.	.	8g#/	-sność	.	.	.
!	!	!	!	!	!	!	!LO:TX:b:t=40:color=red	!	!	!	!	!	!	!
8c#\L)	8g# 8e#/	.	8e#>/	.	.	.	8g#/	.	.	8g#/	twa	.	.	.
8B'\	8r	.	8ryy	.	.	.	8r	.	.	8r	.	.	.	.
8G#'\J	8b 8e#/	.	8e#>/	.	.	.	8g#/	.	.	8b/	nam	.	.	.
=25	=25	=25	=25	=25	=25	=25	=25	=25	=25	=25	=25	=25	=25	=25
!LO:TX:b:t=21:color=dodgerblue:rj	!	!	!	!	!	!	!	!	!	!	!	!	!	!
8FF#'/	(8a#L 8e/	.	4en>\	.	.	.	8f#/L	.	.	8a#/L	žy-	.	.	.
(8B\L	8g#/)	.	.	.	.	.	8g#/J	.	.	8g#/J	.	.	.	.
8A#\J	8f#J 8e'/	.	8e>\	.	.	.	8f#/	.	.	8f#/	-cie	.	.	.
8G#\L	4dd# 4f#/	.	4f#>\	.	.	.	4f#/	.	.	4dd#\	o-	.	.	.
8A#\)	.	.	.	.	.	.	.	.	.	.	.	.	.	.
8F#'\J	8cc# 8f# 8e/	.	8e>\	.	.	.	8f#/	.	.	8cc#\	-pro-	.	.	.
=26	=26	=26	=26	=26	=26	=26	=26	=26	=26	=26	=26	=26	=26	=26
8BB/	4b 4f# 4d#'/	.	4.d#>\	.	.	.	4.f#/	.	.	4.b\	-mie-	.	.	.
8F#\L	.	.	.	.	.	.	.	.	.	.	.	.	.	.
8B\J	8b 8f# 8d#'/	.	.	.	.	.	.	.	.	.	.	.	.	.
8An\L	8b 8f# 8d#'/	.	8d#>\	.	.	.	8f#/	.	.	8b\	-ni!	.	.	.
8F#\	8r	.	8ryy	.	.	.	8r	.	.	8r	.	.	.	.
8B\J	8b 8gn 8e/	.	8e>\	Wo-	.	.	8gn/	Ku	.	8b\	Ku	.	.	.
!!linebreak:original
=27	=27	=27	=27	=27	=27	=27	=27	=27	=27	=27	=27	=27	=27	=27
!!LO:TX:t=P:problem:skreślony takt [1]
!	!	!	!	!	!	!	!	!	!	!LO:TX:a:B:t=A:color=red:note=obwiedziona niebieskim kolorem	!	!	!	!
8EE/	4b 4gn 4e/	.	[2.e/	-ła-	.	.	(4gn/	to-	.	(4b\	to-	.	.	.
8BB'\L	.	.	.	.	.	.	.	.	.	.	.	.	.	.
!	!LO:SIC:v:s=8ccn 8an 8e/	!	!	!	!	!	!	!	!	!	!	!	!	!
8E'\J	8ccn 8a# 8e/	.	.	.	.	.	8an/)	.	.	8ccn\)	.	.	.	.
!	!LO:SIC:v:s=4cc 4an 4e/	!	!	!	!	!	!	!	!	!	!	!	!	!
8B'\L	4cc 4a# 4e/	.	.	.	.	.	4a\	-bie	.	4cc\	-bie	.	.	.
8E'\	.	.	.	.	.	.	.	.	.	.	.	.	.	.
*	*	*	*	*	*	*	*	*ij	*	*	*	*	*	*
!	!	!	!	!	!	!	!	!	!	!LO:TX:a:t=X	!	!	!	!
8BB'\J	8ddn 8b 8g\	.	.	.	.	.	8b\	wo-	.	8ddn\	wo-	.	.	.
.	.	.	.	.	.	.	.	.	.	.	.	.	.	.
=28	=28	=28	=28	=28	=28	=28	=28	=28	=28	=28	=28	=28	=28	=28
*rep	*	*	*	*	*	*	*	*	*	*	*	*	*	*
8EE/	4ddn 4b 4gn\	.	2.e/_	.	.	.	(4b\	-ła-	.	(4ddn\	-ła-	.	.	.
8BB'\L	.	.	.	.	.	.	.	.	.	.	.	.	.	.
8E'\J	8ee 8ccn 8g\	.	.	.	.	.	8ccn\)	.	.	8ee\)	.	.	.	.
8B'\L	4ee 4cc 4g\	.	.	.	.	.	4cc\	-my	.	4ee\	-my	.	.	.
8E'\	.	.	.	.	.	.	.	.	.	.	.	.	.	.
8BB'\J	8dd 8b 8g\	.	.	.	.	.	8b\	o	.	8dd\	o	.	.	.
*Xrep	*	*	*	*	*	*	*	*	*	*	*	*	*	*
=29	=29	=29	=29	=29	=29	=29	=29	=29	=29	=29	=29	=29	=29	=29
*rep	*	*	*	*	*	*	*	*	*	*	*	*	*	*
8EE/	(>4ddn 4b 4gn^/	.	2.e/]	.	.	.	(4b\	świę-	.	(4ddn^\	świę-	.	.	.
8BB'\L	.	.	.	.	.	.	.	.	.	.	.	.	.	.
8E'\J	8ccn 8an/)	.	.	.	.	.	8an/)	.	.	8ccn\)	.	.	.	.
8B'\L	(8ccL 8a/	.	.	.	.	.	8a/L	-ta!	.	8cc\L	-ta!	.	.	.
8E'\	8b 8g/)	.	.	.	.	.	8gn/J	.	.	8b\J	.	.	.	.
8BB'\J	8a#XJ 8f#/	.	.	.	.	.	8f#/	o	.	8a#X\	o	.	.	.
*Xrep	*	*	*	*	*	*	*	*	*	*	*	*	*	*
=30	=30	=30	=30	=30	=30	=30	=30	=30	=30	=30	=30	=30	=30	=30
8EE/	(4b 4gn/	.	4e/	-my!	.	.	4.gn/	świę-	.	4.b\	świę-	.	.	.
8E\L	.	.	.	.	.	.	.	.	.	.	.	.	.	.
8Gn\J	8g 8e/)	.	8r	.	.	.	.	.	.	.	.	.	.	.
8B\L	8g 8e/	.	4r	.	.	.	8e/	-ta!	.	8gn/	-ta!	.	.	.
*	*	*	*	*	*	*	*	*Xij	*	*	*	*	*	*
8G\	8r	.	.	.	.	.	8r	.	.	8r	.	.	.	.
8E\J	8ggn 8ee 8g\	.	8r	.	.	.	8ee\	.	.	8ggn\	w_mi-	.	.	.
=31	=31	=31	=31	=31	=31	=31	=31	=31	=31	=31	=31	=31	=31	=31
8FF#/	4ff# 4ddn 4f#/	.	2.dn/	La-	[[Ma-	.	(4ddn\	.	.	(4ff#\	-ło-	.	.	.
8Dn\L	.	.	.	.	.	.	.	.	.	.	.	.	.	.
8An\J	8ee 8ccn\	.	.	.	.	.	8ccn\)	.	.	8ee\)	.	.	.	.
8dn\L	4dd 4b\	.	.	.	.	.	4b\	.	.	4ddn\	-ści	.	.	.
8A\	.	.	.	.	.	.	.	.	.	.	.	.	.	.
8D\J	8cc 8an\	.	.	.	.	.	8an/	.	.	8ccn\	ty	.	.	.
=32	=32	=32	=32	=32	=32	=32	=32	=32	=32	=32	=32	=32	=32	=32
!	!	!	!LO:SIC:v:s=4dn/	!	!	!	!	!	!	!	!	!	!	!
8GGn/	4b 4gn/	.	4d#/	-kmi!	-tko.]]	.	(4gn/	.	.	(4b\	Bra-	.	.	.
8Dn\L	.	.	.	.	.	.	.	.	.	.	.	.	.	.
8Gn\J	8ccn 8an\	.	8r	.	.	.	8an/)	.	.	8ccn\)	.	.	.	.
8dn\L	8ddn 8b\	.	4r	.	.	.	8b/	.	.	8ddn\	-my	.	.	.
8G\	8r	.	.	.	.	.	8r	.	.	8r	.	.	.	.
!	!	!	!LO:SIC:v:s=8dn/	!	!	!	!	!	!	!	!	!	!	!
8D\J	8ggn 8b\	.	8d#/	o	.	.	8b/	.	.	8dd\	po-	.	.	.
!!linebreak:original
=33	=33	=33	=33	=33	=33	=33	=33	=33	=33	=33	=33	=33	=33	=33
8AAn/	(4ff# 4ddn\	.	2.dn/	Ma-	.	.	(4ddn\	czę-	.	(4ff#\	-czę-	.	.	.
8Dn\L	.	.	.	.	.	.	.	.	.	.	.	.	.	.
8An\J	8ee 8ccn\)	.	.	.	.	.	8ccn\)	.	.	8ee\)	.	.	.	.
.	8qff#/	.	.	.	.	.	.	.	.	.	.	.	.	.
8D\L	(8eeL 8cc\	.	.	.	.	.	8cc\L	-ta,	.	8ee\L	-ta,	.	.	.
8F#\	8dd 8b\)	.	.	.	.	.	8b,\J	.	.	8ddn,\J	.	.	.	.
!	!LO:SIC:v:n=2:s=8anJ\	!	!	!	!	!	!LO:SIC:v:s=8an/	!	!	!	!	!	!	!
8dn\J	8ccJ 8a#'\	.	.	.	.	.	8a#/	tys	.	8ccn\	tyś	.	.	.
=34	=34	=34	=34	=34	=34	=34	=34	=34	=34	=34	=34	=34	=34	=34
8GGn/	4b 4gn/	.	4gn/	-tko!	.	.	(4gn/	po-	.	(4b\	po-	.	.	.
8Dn\L	.	.	.	.	.	.	.	.	.	.	.	.	.	.
!	!LO:SIC:v:s=8ccn 8an\	!	!	!	!	!	!LO:SIC:v:s=8an/)	!	!	!	!	!	!	!
8Gn\J	8ccn 8a#\	.	8r	.	.	.	8a#/)	.	.	8ccn\)	.	.	.	.
!	!	!	!LO:TX:b:t=50:color=red	!	!	!	!	!	!	!	!	!	!	!
(8dn\L	(8ddnL 8b\	.	4r	.	.	.	8b\L	-la	.	8ddn\L	-la	.	.	.
8B\)	8ff# 8dd\	.	.	.	.	.	8ddn\J	.	.	8ff#\J	.	.	.	.
8G'\J	8eeJ 8cc\)	.	8r	.	.	.	8ccn\	za-	.	8ee\	za-	.	.	.
=35	=35	=35	=35	=35	=35	=35	=35	=35	=35	=35	=35	=35	=35	=35
*^	*	*	*	*	*	*	*	*	*	*	*	*	*	*
!LO:TX:b:t=22:color=dodgerblue:rj	!LO:N:vis=2	!	!	!	!	!	!	!	!	!	!	!	!	!	!
8Cn/L	2.C\	(4ddn 4b\	.	2.r	.	.	.	(4b/	-sła-	.	(4ddn\	-sła-	.	.	.
8E/	.	.	.	.	.	.	.	.	.	.	.	.	.	.	.
8Gn/J	.	8ccn 8an\	.	.	.	.	.	8an/)	.	.	8ccn\)	.	.	.	.
8cn/L	.	4gn 4e/	.	.	.	.	.	4e/	-ła	.	4gn/	-ła	.	.	.
8G/	.	.	.	.	.	.	.	.	.	.	.	.	.	.	.
!	!	!	!	!	!	!	!	!	!	!	!LO:SIC:v:s=8an/	!	!	!	!
8An/J	.	8a 8f#/	.	.	.	.	.	8f#/	zbóž	.	8a#/	zbóž	.	.	.
=36	=36	=36	=36	=36	=36	=36	=36	=36	=36	=36	=36	=36	=36	=36	=36
!	!LO:N:vis=2	!	!	!	!	!	!	!	!	!	!	!	!	!	!
8GGn/L	2.GG\	4.b 4.gn/	.	2.e/	o!	.	.	4.gn/	sia-	.	[4.b\	sia-	.	.	.
8E/	.	.	.	.	.	.	.	.	.	.	.	.	.	.	.
8Gn/J	.	.	.	.	.	.	.	.	.	.	.	.	.	.	.
8B/L	.	4g 4e/)	.	.	.	.	.	8e/	-tką.	.	8b\]	-tką	.	.	.
8G/	.	.	.	.	.	.	.	8r	.	.	8r	.	.	.	.
!	!	!	!	!	!	!	!	!	!	!LO:DY:a:rj	!	!	!	!	!
8E/J	.	8ee 8e/	.	.	.	.	.	8g/	o	p	8r	.	.	.	.
=37	=37	=37	=37	=37	=37	=37	=37	=37	=37	=37	=37	=37	=37	=37	=37
!LO:SIC:v:s=8AAn/L	!LO:N:vis=2	!	!LO:DY:rj	!	!	!	!LO:DY:a:rj	!	!	!	!	!	!	!	!
!	!LO:SIC:v:s=2.AAn\	!	!	!	!	!	!	!	!	!	!	!	!	!	!
8AA#/L	2.AA#\	(4ddn 4b 4e\	p	(4dn/	.	.	p	(4b/	La-	.	2.r	.	.	.	.
8E/	.	.	.	.	.	.	.	.	.	.	.	.	.	.	.
!LO:SIC:v:s=8An/J	!	!LO:SIC:v:s=8ccn 8an\	!	!	!	!	!	!LO:SIC:v:s=8an/)	!	!	!	!	!	!	!
8A#/J	.	8ccn 8a#\	.	8cn/)	.	.	.	8a#/)	.	.	.	.	.	.	.
8cn/L	.	4gn 4e/	.	4Gn/	.	.	.	4e/	-kmi	.	.	.	.	.	.
!LO:SIC:v:s=8An/	!	!	!	!	!	!	!	!	!	!	!	!	!	!	!
8A#/	.	.	.	.	.	.	.	.	.	.	.	.	.	.	.
!LO:TX:b:t=x:color=dodgerblue	!	!LO:SIC:v:s=8an 8f#/)	!	!LO:SIC:v:s=8An/	!	!	!	!	!	!	!	!	!	!	!
8E/J	.	8a# 8f#/)	.	8A#/	.	.	.	8f#/	wspa-	.	.	.	.	.	.
*v	*v	*	*	*	*	*	*	*	*	*	*	*	*	*	*
=38	=38	=38	=38	=38	=38	=38	=38	=38	=38	=38	=38	=38	=38	=38
!LO:TX:t=P:problem=mixed beam	!	!	!	!	!	!	!	!	!	!	!	!	!	!
8EE/L	([<4.b [4.gn^/	.	[4.B/	.	.	.	[4.gn/	-nia-	.	2.r	.	.	.	.
8E\	.	.	.	.	.	.	.	.	.	.	.	.	.	.
8Gn\	.	.	.	.	.	.	.	.	.	.	.	.	.	.
8B\	4b] 4g/]	.	4B/]	.	.	.	4g/]	.	.	.	.	.	.	.
8G\	.	.	.	.	.	.	.	.	.	.	.	.	.	.
8E\J	8g 8e/)	.	8e/	.	.	.	8g/	-ła!	.	.	.	.	.	.
!!pagebreak:original
=39	=39	=39	=39	=39	=39	=39	=39	=39	=39	=39	=39	=39	=39	=39
*	*rep	*	*	*	*	*	*	*	*	*	*	*	*	*
8E\L	([<4.b [4.gn^/	.	[4.gn^/	.	.	.	[4.b^/	Ma-	.	2.r	.	.	.	.
8Gn\	.	.	.	.	.	.	.	.	.	.	.	.	.	.
8B\J	.	.	.	.	.	.	.	.	.	.	.	.	.	.
8e\L	4b] 4g/]	.	4g/]	.	.	.	4b/]	.	.	.	.	.	.	.
8B\	.	.	.	.	.	.	.	.	.	.	.	.	.	.
8G\J	8g 8e/)	.	8e/	.	.	.	8gn/	-tko!	.	.	.	.	.	.
*	*Xrep	*	*	*	*	*	*	*	*	*	*	*	*	*
=40	=40	=40	=40	=40	=40	=40	=40	=40	=40	=40	=40	=40	=40	=40
*	*rep	*	*	*	*	*	*	*	*	*	*	*	*	*
8E\L	([<4.b [4.gn^/	.	[4.gn^/	.	.	.	([4.b^/	ma-	.	2.ryy	.	.	.	.
8Gn\	.	.	.	.	.	.	.	.	.	.	.	.	.	.
8B\J	.	.	.	.	.	.	.	.	.	.	.	.	.	.
8G/L	4b] 4g/]	.	4g/]	.	.	.	4b/])	.	.	.	.	.	.	.
8E/	.	.	.	.	.	.	.	.	.	.	.	.	.	.
8BB/J	8g 8e/)	.	8e/	.	.	.	8gn/	-tko!	.	.	.	.	.	.
*	*Xrep	*	*	*	*	*	*	*	*	*	*	*	*	*
=41	=41	=41	=41	=41	=41	=41	=41	=41	=41	=41	=41	=41	=41	=41
*^	*	*	*	*	*	*	*	*	*	*	*	*	*	*
!	!LO:N:vis=2	!	!	!	!	!	!	!	!	!	!	!	!	!	!
8C#X/L	2.C#X\	(4b 4gn/	.	(4gn/	.	.	.	(4b/	Ma-	.	4r	.	.	.	.
8E/	.	.	.	.	.	.	.	.	.	.	.	.	.	.	.
8Gn/J	.	8g 8e/	.	8e/)	.	.	.	8gn/)	.	.	8r	.	.	.	.
8B/L	.	8b 8g/)	.	8g/	.	.	.	8b/	-tko!	.	4r	.	.	.	.
8G/	.	8r	.	8r	.	.	.	8r	.	.	.	.	.	.	.
!	!	!LO:TX:b:B:t=A=:color=red	!	!	!	!	!	!	!	!	!	!	!	!	!
8E/J	.	8b 8g 8e/	.	8e/	.	.	.	8g/	Zejdź	.	8b/	Zejdź	.	.	.
*v	*v	*	*	*	*	*	*	*	*	*	*	*	*	*	*
=42	=42	=42	=42	=42	=42	=42	=42	=42	=42	=42	=42	=42	=42	=42
!	!	!	!	!	!	!	!	!	!	!LO:TX:a:B:rj:t=B:color=red:note=obwiedziona niebieskim kolorem	!	!	!	!
8FF#/	(4b 4gn 4e^/	.	4e/	.	.	.	4gn/	z_gór-	.	4b/	z_gór-	.	.	.
(8C#\L	.	.	.	.	.	.	.	.	.	.	.	.	.	.
8F#\J	8a#X 8f#/	.	8c#/	.	.	.	8f#/	-nych	.	8a#/	-nych	.	.	.
8c#\L)	8a#L 8f#'/	.	4c#/	.	.	.	8f#/L	nieb,	.	8a#/L	nieb	.	.	.
8B'\	8g#X 8e#X'/	.	.	.	.	.	8e#X/J	.	.	8g#/J	.	.	.	.
!	!	!	!	!	!	!	!	!	!	!LO:TX:a:t=x	!	!	!	!
8A#'\J	8f#J 8en'/)	.	8c#/	.	.	.	8en/	stań	.	8f#/	śród	.	.	.
=43	=43	=43	=43	=43	=43	=43	=43	=43	=43	=43	=43	=43	=43	=43
8BB/	4dd# 4f# 4d#/	.	8f#/	.	.	.	8d#/	po-	.	[4.dd#\	nas	.	.	.
(8D#\L	.	.	8r	.	.	.	8r	.	.	.	.	.	.	.
8F#\J	8f# 8d#'/	.	8d#/	.	.	.	8f#/	-śród	.	.	.	.	.	.
8B\L)	4f# 4d#'/	.	8d#/	.	.	.	8f#/	nas,	.	4dd#\]	.	.	.	.
8D#\	.	.	8r	.	.	.	8r	.	.	.	.	.	.	.
8F#\J	8b 8f# 8d#/	.	8d#/	.	.	.	8d#/	za-	.	8b\	za-	.	.	.
=44	=44	=44	=44	=44	=44	=44	=44	=44	=44	=44	=44	=44	=44	=44
*	*^	*	*	*	*	*	*	*	*	*	*	*	*	*
8FF#/	(<8b/L	4e\	.	8c#/	.	.	.	8e/	-pło-	.	8b/L	-pło-	.	.	.
(8C#\L	8a#/)	.	.	8r	.	.	.	8r	.	.	8a#/J	.	.	.	.
!	!	!	!	!LO:TX:b:t=60:color=red	!	!	!	!	!	!	!	!	!	!	!
8F#\J	8b/J	8e\	.	8c#/	.	.	.	8e/	-dnij	.	8b/	-dnij	.	.	.
8c#\L	(<8a#/L	4e\	.	8c#/	.	.	.	8e/	.	.	8a#/L	tchnie-	.	.	.
8B\)	8g#/)	.	.	8r	.	.	.	8r	.	.	8g#/J	.	.	.	.
8A#\J	8f#/J	8e\	.	8c#/	.	.	.	8e/	.	.	8f#/	-niem	.	.	.
*	*v	*v	*	*	*	*	*	*	*	*	*	*	*	*	*
!!linebreak:original
=45	=45	=45	=45	=45	=45	=45	=45	=45	=45	=45	=45	=45	=45	=45
!LO:TX:b:t=23:color=dodgerblue:rj	!	!	!	!	!	!	!	!	!	!	!	!	!	!
8BB'/	4dd# 4f# 4d#/	.	4.B/	.	.	.	(4d#/	.	.	4.dd#\	zie-	.	.	.
(8D#\L	.	.	.	.	.	.	.	.	.	.	.	.	.	.
8F#\J	8b 8f# 8d#/	.	.	.	.	.	8b/)	.	.	.	.	.	.	.
8B\L)	4b 4f# 4d#/	.	8d#/	.	.	.	8f#/	.	.	8b\	-mię	.	.	.
8D#'\	.	.	8r	.	.	.	8r	.	.	8r	.	.	.	.
8F#'\J	(8dd# (8d#/	.	8d#/	.	.	.	8b/	.	.	8dd#\	mi-	.	.	.
=46	=46	=46	=46	=46	=46	=46	=46	=46	=46	=46	=46	=46	=46	=46
*	*^	*	*	*	*	*	*	*	*	*	*	*	*	*
8FF#'/	4ff# 4f#/))	4.ryy	.	4c#/	.	.	.	4a#X/	.	.	4ff#\	-ło-	.	.	.
(8C#\L	.	.	.	.	.	.	.	.	.	.	.	.	.	.	.
8F#\J	8cc# 8a# 8f#/	.	.	8f#/	.	.	.	8a#/	.	.	8cc#\	-śćią	.	.	.
8c#\L)	(<8cc#/L	4a# 4f#\	.	8f#/	.	.	.	8a#/	.	.	8cc#\L	krzep,	.	.	.
8A#'\	8ee#X/)	.	.	8r	.	.	.	8r	.	.	8ee#X\J	.	.	.	.
8F#'\J	8dd#/J	8a# 8f#\	.	8f#/	.	.	.	8a#/	.	.	8dd#\	daj	.	.	.
*	*v	*v	*	*	*	*	*	*	*	*	*	*	*	*	*
=47	=47	=47	=47	=47	=47	=47	=47	=47	=47	=47	=47	=47	=47	=47
8FF#'/	8cc# 8e#X/	.	4e#X/	.	.	.	4g#/	.	.	4cc#\	bło-	.	.	.
(8C#\L	8r	.	.	.	.	.	.	.	.	.	.	.	.	.
8F#\J	8g# 8e#/	.	8e#/	.	.	.	8g#/	.	.	8g#/	-gi	.	.	.
8c#\L)	8g# 8e#/	.	8e#/	.	.	.	8g#/	.	.	8g#/	wczas,	.	.	.
8B'\	8r	.	8r	.	.	.	8r	.	.	8r	.	.	.	.
!	!	!	!	!	!	!	!LO:TX:b:t=x:color=dodgerblue	!	!	!	!	!	!	!
8G#'\J	8b 8e#/	.	8e#/	.	.	.	8g#/	.	.	8b/	niech	.	.	.
=48	=48	=48	=48	=48	=48	=48	=48	=48	=48	=48	=48	=48	=48	=48
*	*^	*	*	*	*	*	*	*	*	*	*	*	*	*
8FF#/	(<8a#X/L	4e\	.	4en/	.	.	.	8f#/L	.	.	8a#/L	ludz-	.	.	.
(8B\L	8g#/	.	.	.	.	.	.	8g#/J	.	.	8g#/J	.	.	.	.
8A#\J	8f#/J)	8f#\	.	8e/	.	.	.	8f#/	.	.	8f#/	-kie	.	.	.
8G#\L	4dd# 4f#/	4.ryy	.	4f#/	.	.	.	4f#\	.	.	4dd#\	wzra-	.	.	.
8A#\)	.	.	.	.	.	.	.	.	.	.	.	.	.	.	.
!	!LO:TX:b:B:t==B:color=red	!	!	!	!	!	!	!	!	!	!	!	!	!	!
8F#\J	8cc# 8e/	.	.	8e/	.	.	.	8f#/	.	.	8cc#\	-sta	.	.	.
*	*v	*v	*	*	*	*	*	*	*	*	*	*	*	*	*
=49	=49	=49	=49	=49	=49	=49	=49	=49	=49	=49	=49	=49	=49	=49
!	!	!	!	!	!	!	!	!	!	!LO:TX:a:B:t=C:color=red:note=obwiedziona niebieskim kolorem	!	!	!	!
8BB\L	8b 8d#/	.	2.d#/	.	.	.	2.f#/	.	.	2.b\	ple-	.	.	.
8F#\	8r	.	.	.	.	.	.	.	.	.	.	.	.	.
!	!LO:TUP:a:problem=klamra łukowa	!	!	!	!	!	!	!	!	!	!	!	!	!
8B\J	24e/LL	.	.	.	.	.	.	.	.	.	.	.	.	.
.	24d#/	.	.	.	.	.	.	.	.	.	.	.	.	.
.	24c##X/JJ	.	.	.	.	.	.	.	.	.	.	.	.	.
*rep	*	*	*	*	*	*	*	*	*	*	*	*	*	*
8BB\L	8d#/	.	.	.	.	.	.	.	.	.	.	.	.	.
8F#\	8r	.	.	.	.	.	.	.	.	.	.	.	.	.
!	!LO:TUP:a:problem=klamra łukowa	!	!	!	!	!	!	!	!	!	!	!	!	!
8B\J	24e/LL	.	.	.	.	.	.	.	.	.	.	.	.	.
.	24d#/	.	.	.	.	.	.	.	.	.	.	.	.	.
.	24c##/JJ	.	.	.	.	.	.	.	.	.	.	.	.	.
*Xrep	*	*	*	*	*	*	*	*	*	*	*	*	*	*
=50	=50	=50	=50	=50	=50	=50	=50	=50	=50	=50	=50	=50	=50	=50
*rep	*	*	*	*	*	*	*	*	*	*	*	*	*	*
8BB\L	8d#/	.	8d#/	.	.	.	8f#/	.	.	8f#/	-mie.	.	.	.
8F#\	8ryy	.	8r	.	.	.	8r	.	.	8r	.	.	.	.
!	!	!	!	!	!	!LO:DY:a:rj	!	!	!LO:DY:a:rj	!	!	!	!	!LO:DY:a:rj
8B\J	8dd# 8f# 8d#'/	.	8d#/	.	.	p	8f#/	.	p	8dd#\	O	.	.	p
8BB\L	8dd# 8f# 8d#'/	.	4d#/	.	.	.	4f#/	.	.	4dd#\	patrz-	.	.	.
8F#\	8r	.	.	.	.	.	.	.	.	.	.	.	.	.
8B\J	8dd# 8f# 8d#'/	.	8d#/	.	.	.	8f#/	.	.	8dd#\	-cie	.	.	.
*Xrep	*	*	*	*	*	*	*	*	*	*	*	*	*	*
=51	=51	=51	=51	=51	=51	=51	=51	=51	=51	=51	=51	=51	=51	=51
(8AA#\L	4cc# 4f##X 4d#/	.	8d#/	tam	.	.	[4.f##X/	.	.	[4.dd#\	tam	.	.	.
8D#\	.	.	8r	.	.	.	.	.	.	.	.	.	.	.
!	!LO:TUP:a:problem=klamra łukowa	!	!	!	!	!	!	!	!	!	!	!	!	!
8A#\J)	24e/LL	.	8e/	o	.	.	.	.	.	.	.	.	.	.
.	24d#/	.	.	.	.	.	.	.	.	.	.	.	.	.
.	24c##X/JJ	.	.	.	.	.	.	.	.	.	.	.	.	.
*rep	*	*	*	*	*	*	*	*	*	*	*	*	*	*
(8AA#\L	8d#/	.	4d#/	patrz-	.	.	8f##/]	.	.	8dd#\]	.	.	.	.
8D#\	8r	.	.	.	.	.	8r	.	.	8r	.	.	.	.
!	!LO:TUP:a:problem=klamra łukowa	!	!	!	!	!	!	!	!	!	!	!	!	!
8A#\J)	24e/LL	.	8e/	-cie	.	.	8r	.	.	8r	.	.	.	.
.	24d#/	.	.	.	.	.	.	.	.	.	.	.	.	.
.	24c##/JJ	.	.	.	.	.	.	.	.	.	.	.	.	.
!!linebreak:original
*Xrep	*	*	*	*	*	*	*	*	*	*	*	*	*	*
=52	=52	=52	=52	=52	=52	=52	=52	=52	=52	=52	=52	=52	=52	=52
(8AA#\L	8d#/	.	4d#/	z_da-	.	.	4.f##X/	.	.	4.cc#\	z_da-	.	.	.
8D#\	8r	.	.	.	.	.	.	.	.	.	.	.	.	.
8A#\J)	8cc# 8f##X 8d#/	.	8d#/	-la	.	.	.	.	.	.	.	.	.	.
*rep	*	*	*	*	*	*	*	*	*	*	*	*	*	*
(8AA#\L	8cc# 8f## 8d#'/	.	8d#/	tam,	.	.	8f##/	.	.	8cc#\	-la	.	.	.
8D#\	8r	.	8r	.	.	.	8r	.	.	8r	.	.	.	.
8A#\J)	8cc# 8f## 8d#/	.	8d#/	w_prze-	.	.	8f##/	.	.	8cc#\	w_prze-	.	.	.
*Xrep	*	*	*	*	*	*	*	*	*	*	*	*	*	*
=53	=53	=53	=53	=53	=53	=53	=53	=53	=53	=53	=53	=53	=53	=53
!	!	!	!	!	!	!	!	!	!	!LO:TX:a:t=x:rj	!	!	!	!
(8GG#/L	4b 4g# 4d#/	.	4d#/	-strze-	.	.	4.g#/	.	.	4.b\	-strze-	.	.	.
8D#/	.	.	.	.	.	.	.	.	.	.	.	.	.	.
*	*Xtuplet	*	*	*	*	*	*	*	*	*	*	*	*	*
!	!LO:TUP:a:problem=klamra łukowa	!	!	!	!	!	!	!	!	!	!	!	!	!
8G#/J)	24e/LL	.	8e/	-ni	.	.	.	.	.	.	.	.	.	.
.	24d#/	.	.	.	.	.	.	.	.	.	.	.	.	.
.	24c##X/JJ	.	.	.	.	.	.	.	.	.	.	.	.	.
*rep	*	*	*	*	*	*	*	*	*	*	*	*	*	*
(8GG#/L	8d#/	.	4d#/	tam	.	.	4g#/	.	.	4b\	-ni	.	.	.
8D#/	8r	.	.	.	.	.	.	.	.	.	.	.	.	.
!	!LO:TUP:a:problem=klamra łukowa	!	!	!	!	!	!	!	!	!	!	!	!	!
8G#/J)	24e/LL	.	8e/	zza	.	.	8g#/	.	.	8b\	zza	.	.	.
.	24d#/	.	.	.	.	.	.	.	.	.	.	.	.	.
.	24c##/JJ	.	.	.	.	.	.	.	.	.	.	.	.	.
*Xrep	*	*	*	*	*	*	*	*	*	*	*	*	*	*
=54	=54	=54	=54	=54	=54	=54	=54	=54	=54	=54	=54	=54	=54	=54
*rep	*	*	*	*	*	*	*	*	*	*	*	*	*	*
(8GG#/L	8d#'/	.	4d#/	swia-	.	.	4.g#/	.	.	4.b\	swia-	.	.	.
8D#/	8r	.	.	.	.	.	.	.	.	.	.	.	.	.
8G#/J)	8b 8g# 8d#'/	.	8d#/	-ta	.	.	.	.	.	.	.	.	.	.
!	!	!	!	!	!	!	!LO:TX:b:t=70:color=red	!	!	!	!	!	!	!
(8GG#/L	8b 8g# 8d#'/	.	8d#/	jak	.	.	8g#/	.	.	8b\	-ta,	.	.	.
8D#/	8r	.	8r	.	.	.	8r	.	.	8r	.	.	.	.
8G#/J)	8b 8g# 8d#'/	.	8d#/	pro-	.	.	8g#/	.	.	8b\	pro-	.	.	.
*Xrep	*	*	*	*	*	*	*	*	*	*	*	*	*	*
=55	=55	=55	=55	=55	=55	=55	=55	=55	=55	=55	=55	=55	=55	=55
!LO:TX:b:rj:t=24:color=dodgerblue	!	!	!	!	!	!	!LO:N:vis=4	!	!	!	!	!	!	!
(8FF#/L	4an 4d# 4B/	.	4d#/	-mie-	.	.	4.f#/	.	.	4.an/	-mie-	.	.	.
8D#/	.	.	.	.	.	.	.	.	.	.	.	.	.	.
!	!LO:TUP:a:problem=klamra łukowa	!	!	!	!	!	!	!	!	!	!	!	!	!
8F#/J)	24e/LL	.	8e/	-ni	.	.	.	.	.	.	.	.	.	.
.	24d#/	.	.	.	.	.	.	.	.	.	.	.	.	.
.	24c##X/JJ	.	.	.	.	.	.	.	.	.	.	.	.	.
*rep	*	*	*	*	*	*	*	*	*	*	*	*	*	*
(8FF#/L	8d#'/	.	8d#/	się	.	.	4f#/	.	.	4a/	-ni	.	.	.
8D#/	8r	.	8r	.	.	.	.	.	.	.	.	.	.	.
!	!LO:TUP:a:problem=klamra łukowa	!	!	!	!	!	!	!	!	!	!	!	!	!
8F#/J)	24e/LL	.	8e/	tam	.	.	8f#/	.	.	8a/	się	.	.	.
.	24d#/	.	.	.	.	.	.	.	.	.	.	.	.	.
.	24c##/JJ	.	.	.	.	.	.	.	.	.	.	.	.	.
*Xrep	*	*	*	*	*	*	*	*	*	*	*	*	*	*
=56	=56	=56	=56	=56	=56	=56	=56	=56	=56	=56	=56	=56	=56	=56
*rep	*	*	*	*	*	*	*	*	*	*	*	*	*	*
(8FF#/L	8d#/	.	8d#/	fa-	.	.	4.f#/	.	.	4.an/	fa-	.	.	.
8D#/	8r	.	8d#/	-la	.	.	.	.	.	.	.	.	.	.
8F#/J)	8an 8d# 8c#/	.	8d#/	pro-	.	.	.	.	.	.	.	.	.	.
(8FF#/L	8a 8d# 8c#/	.	4d#/	-mie-	.	.	4c#/	.	.	4a/	-la	.	.	.
8D#/	8r	.	.	.	.	.	.	.	.	.	.	.	.	.
8F#/J)	8a 8d# 8c#/	.	8d#/	-ni	.	.	8c#/	.	.	8a/	skrzy-	.	.	.
*Xrep	*	*	*	*	*	*	*	*	*	*	*	*	*	*
=57	=57	=57	=57	=57	=57	=57	=57	=57	=57	=57	=57	=57	=57	=57
*rep	*	*	*	*	*	*	*	*	*	*	*	*	*	*
(8FF#/L	4g# 4d# 4B#X/	.	4d#/	się	.	.	2.B#X/	.	.	2.g#/	-dla-	.	.	.
8D#/	.	.	.	.	.	.	.	.	.	.	.	.	.	.
!	!LO:TUP:a:problem=klamra łukowa	!	!	!	!	!	!	!	!	!	!	!	!	!
8F#/J)	24e/LL	.	8e/	skrzy-	.	.	.	.	.	.	.	.	.	.
.	24d#/	.	.	.	.	.	.	.	.	.	.	.	.	.
.	24c##X/JJ	.	.	.	.	.	.	.	.	.	.	.	.	.
(8FF#/L	8d#/	.	(4d#/	-dla-	.	.	.	.	.	.	.	.	.	.
8D#/	8r	.	.	.	.	.	.	.	.	.	.	.	.	.
!	!LO:TUP:a:problem=klamra łukowa	!	!	!	!	!	!	!	!	!	!	!	!	!
8F#/J)	24e/LL	.	8e/)	.	.	.	.	.	.	.	.	.	.	.
.	24d#/	.	.	.	.	.	.	.	.	.	.	.	.	.
.	24c##/JJ	.	.	.	.	.	.	.	.	.	.	.	.	.
*Xrep	*	*	*	*	*	*	*	*	*	*	*	*	*	*
=58	=58	=58	=58	=58	=58	=58	=58	=58	=58	=58	=58	=58	=58	=58
8FF#/L	8d#/	.	4d#/	-ta	.	.	4g#/	.	.	4g#/	-ta	.	.	.
8GG#/	8r	.	.	.	.	.	.	.	.	.	.	.	.	.
8D#/J	8g# 8d# 8B#X'/	.	8r	.	.	.	8r	.	.	8r	.	.	.	.
8FF#/L	4g# 4d# 4B#/	.	4r	.	.	.	4r	.	.	4r	.	.	.	.
8GG#/	.	.	.	.	.	.	.	.	.	.	.	.	.	.
8D#/J	8g# 8d# 8B#/	.	8g#/	.	.	.	8g#/	.	.	8g#/	i	.	.	.
=59	=59	=59	=59	=59	=59	=59	=59	=59	=59	=59	=59	=59	=59	=59
4E 4EE'/	8cc# 8g# 8c#/	.	4.e/	.	.	.	4.cc#\	.	.	4.g#/	dźwię-	.	.	.
.	(8c#/L	.	.	.	.	.	.	.	.	.	.	.	.	.
8r	8g#/	.	.	.	.	.	.	.	.	.	.	.	.	.
4G# 4E'\	8cc#/	.	4e/	.	.	.	4cc#\	.	.	4g#/	-czy	.	.	.
.	8g#/	.	.	.	.	.	.	.	.	.	.	.	.	.
8r	8c#/J)	.	8e/	.	.	.	8cc#\	.	.	8g#/	i	.	.	.
!!pagebreak:original
=60	=60	=60	=60	=60	=60	=60	=60	=60	=60	=60	=60	=60	=60	=60
4D# 4DD#/	8b 8f# 8d#/	.	4.d#/	.	.	.	4.b/	.	.	4.g#/	kwi-	.	.	.
!	!LO:TX:t=d:color=dodgerblue	!	!	!	!	!	!	!	!	!	!	!	!	!
.	(8d#/L	.	.	.	.	.	.	.	.	.	.	.	.	.
!	!LO:SIC:v:s=8g#/J	!	!	!	!	!	!	!	!	!	!	!	!	!
!	!LO:TX:t=f:color=dodgerblue	!	!	!	!	!	!	!	!	!	!	!	!	!
8r	8f#/J	.	.	.	.	.	.	.	.	.	.	.	.	.
!	!LO:TX:t=h:color=dodgerblue	!	!	!	!	!	!	!	!	!	!	!	!	!
4F# 4D#\	8b/L	.	4d#/	.	.	.	4b/	.	.	4g#/	-li	.	.	.
!	!LO:SIC:v:s=8g#/)	!	!	!	!	!	!	!	!	!	!	!	!	!
!	!LO:TX:t=f:color=dodgerblue	!	!	!	!	!	!	!	!	!	!	!	!	!
.	8f#/)	.	.	.	.	.	.	.	.	.	.	.	.	.
!	!LO:TX:t=d:color=dodgerblue	!	!	!	!	!	!	!	!	!	!	!	!	!
8r	8d#/J	.	8d#/	.	.	.	8b/	.	.	8g#/	rój	.	.	.
=61	=61	=61	=61	=61	=61	=61	=61	=61	=61	=61	=61	=61	=61	=61
!	!	!	!LO:N:vis=4	!	!	!	!LO:N:vis=4	!	!	!	!	!	!	!
4C# 4CC#/	8anL 8e/	.	4.c#/	.	.	.	4.an/	.	.	(4an/	skrzy-	.	.	.
.	(8An/	.	.	.	.	.	.	.	.	.	.	.	.	.
8r	8e/J	.	.	.	.	.	.	.	.	8e/)	.	.	.	.
4E 4C#\	8a/L	.	4c#/	.	.	.	4a/	.	.	4e/	-deł	.	.	.
.	8e/	.	.	.	.	.	.	.	.	.	.	.	.	.
8r	8a/J)	.	8c#/	.	.	.	8a/	.	.	8e/	mo-	.	.	.
=62	=62	=62	=62	=62	=62	=62	=62	=62	=62	=62	=62	=62	=62	=62
*	*^	*	*	*	*	*	*	*	*	*	*	*	*	*
!	!LO:N:vis=4	!	!	!LO:SIC:v:s=4.dn/	!	!	!	!	!	!	!	!	!	!	!
4BB 4BBB/	4.g#X/	(>8fn\L	.	4.d#/	.	.	.	4.g#/	.	.	4.fn/	-ty-	.	.	.
!	!	!LO:SIC:v:s=8dn\	!	!	!	!	!	!	!	!	!	!	!	!	!
.	.	8d#\	.	.	.	.	.	.	.	.	.	.	.	.	.
8r	.	8f\J)	.	.	.	.	.	.	.	.	.	.	.	.	.
!	!	!	!	!LO:SIC:v:s=4.dn/	!	!	!	!	!	!	!	!	!	!	!
!	!	!	!	!LO:N:vis=4	!	!	!	!	!	!	!	!	!	!	!
4EE/	4g#/	8e\L	.	4.d#/	.	.	.	8g#/	.	.	8f/	-li	.	.	.
!	!	!LO:SIC:v:s=8dn\	!	!	!	!	!	!	!	!	!	!	!	!	!
.	.	8d#\	.	.	.	.	.	8r	.	.	8r	.	.	.	.
8r	8g#/	8B\J	.	.	.	.	.	8g#/	Ku	.	8e/	ku	.	.	.
*	*v	*v	*	*	*	*	*	*	*	*	*	*	*	*	*
=63	=63	=63	=63	=63	=63	=63	=63	=63	=63	=63	=63	=63	=63	=63
*k[f#c#g#]	*k[f#c#g#]	*	*k[f#c#g#]	*	*	*	*k[f#c#g#]	*	*	*k[f#c#g#]	*	*	*	*
*	*^	*	*	*	*	*	*	*	*	*	*	*	*	*
!	!	!	!	!	!	!	!	!LO:TX:t=P:problem=kolejność znaków&colon;an ddn, f# zamiast f##, g# zamiast gg#	!	!	!	!	!	!	!
!LO:TX:t=P:problem=kolejność znaków&colon; AAn Dn	!LO:TX:t=P:problem=kolejność znaków&colon; an ddn, f# zamiast ff#, g# zamiast gg#	!	!	!LO:TX:t=P:problem=kolejność znaków&colon; an ddn, f# zamiast f##, g# zamiast gg#	!	!	!	!LO:N:vis=2	!	!	!LO:TX:t=P:problem=kolejność znaków&colon; an ddn, f# zamiast ff#, g# zamiast gg#	!	!	!	!
.	.	.	.	.	.	.	.	.	.	.	4qqe/	.	.	.	.
[2.E [2.AA\	(8a/L	[2.c#\	.	2.c#/	.	.	.	[2.a/	zie-	.	4.a\	zie-	.	.	.
.	8e/	.	.	.	.	.	.	.	.	.	.	.	.	.	.
.	8a/J	.	.	.	.	.	.	.	.	.	.	.	.	.	.
.	8cc#/L	.	.	.	.	.	.	.	.	.	4cc#\	-mi	.	.	.
.	8a/	.	.	.	.	.	.	.	.	.	.	.	.	.	.
.	8cc#/J	.	.	.	.	.	.	.	.	.	8cc#\	się	.	.	.
=64	=64	=64	=64	=64	=64	=64	=64	=64	=64	=64	=64	=64	=64	=64	=64
2.E] 2.AA\]	8ee/L	4.c#\]	.	4.c#/	.	.	.	4.a/]	.	.	2.e/	chy-	.	.	.
.	8cc#/	.	.	.	.	.	.	.	.	.	.	.	.	.	.
!	!LO:TX:b:t=80:color=red	!	!	!	!	!	!	!	!	!	!	!	!	!	!
.	8a/J	.	.	.	.	.	.	.	.	.	.	.	.	.	.
.	8g#/L	4.d\	.	8d/L	.	.	.	8g#/L	-mi	.	.	.	.	.	.
.	8e/	.	.	8e/J	.	.	.	8e/J	.	.	.	.	.	.	.
.	8b/J	.	.	8d/	.	.	.	8g#/	się	.	.	.	.	.	.
=65	=65	=65	=65	=65	=65	=65	=65	=65	=65	=65	=65	=65	=65	=65	=65
!LO:TX:b:t=25:color=dodgerblue	!	!	!	!	!	!	!	!	!	!	!	!	!	!	!
[2.E [>2.AA\	8a/L	[2.c#\	.	[2.c#/	.	.	.	[2.a/	chy-	.	8a/	-li	.	.	.
.	8e/	.	.	.	.	.	.	.	.	.	8r	.	.	.	.
.	8a/J	.	.	.	.	.	.	.	.	.	8a/	ku	.	.	.
.	8cc#/L	.	.	.	.	.	.	.	.	.	8cc#\	zie-	.	.	.
.	8a/	.	.	.	.	.	.	.	.	.	8a\	-mi	.	.	.
.	8cc#/J	.	.	.	.	.	.	.	.	.	8cc#\	się	.	.	.
!!linebreak:original
=66	=66	=66	=66	=66	=66	=66	=66	=66	=66	=66	=66	=66	=66	=66	=66
!	!LO:TX:t=P:problem=brak zakończenia łuku (początek pięciolinii)	!	!	!	!	!	!	!	!	!	!	!	!	!	!
2.E] 2.AA\]	8ee/L	4.c#\]	.	4.c#/]	.	.	.	4.a/]	.	.	2.e/	.	.	.	.
.	8cc#/	.	.	.	.	.	.	.	.	.	.	.	.	.	.
.	8a/J	.	.	.	.	.	.	.	.	.	.	.	.	.	.
.	8g#/L	4.d\	.	8d/L	.	.	.	8g#/L	-li	.	.	.	.	.	.
.	8e/	.	.	8e/J	.	.	.	8e/J	.	.	.	.	.	.	.
.	8b/J)	.	.	8d/	.	.	.	8g#/	ku	.	.	.	.	.	.
*	*v	*v	*	*	*	*	*	*	*	*	*	*	*	*	*
=67	=67	=67	=67	=67	=67	=67	=67	=67	=67	=67	=67	=67	=67	=67
!LO:S:color=dodgerblue	!	!	!	!	!	!	!	!	!	!	!	!	!	!
(8AA\L	4a 4c#/	.	4.c#/	.	.	.	(4a/	zie-	.	4e/	.	.	.	.
8E\	.	.	.	.	.	.	.	.	.	.	.	.	.	.
8A\J	8e/	.	.	.	.	.	8e/)	.	.	8ryy	.	.	.	.
4c#\)	4e/	.	8e/	.	.	.	8e/	-mi	.	4ryy	.	.	.	.
.	.	.	8r	.	.	.	8r	.	.	.	.	.	.	.
8r	8cc# 8a 8e\	.	8a/	.	.	.	8cc#\	się	.	8ryy	.	.	.	.
=68	=68	=68	=68	=68	=68	=68	=68	=68	=68	=68	=68	=68	=68	=68
!LO:S:color=dodgerblue	!	!	!	!	!	!	!	!	!	!	!	!	!	!
(8AA\L	4cc# 4a [4e/	.	(4a/	.	.	.	(4cc#\	chy-	.	4r	.	.	.	.
8E\	.	.	.	.	.	.	.	.	.	.	.	.	.	.
8A\J	8a 8e/]	.	8e/)	.	.	.	8a\)	.	.	8r	.	.	.	.
4c#\)	4a/	.	4a/	.	.	.	8a\	-li	.	4r	.	.	.	.
.	.	.	.	.	.	.	8r	.	.	.	.	.	.	.
8r	(8cc# (<8a\	.	8a/	.	.	.	8cc#\	i	.	8ee\	i	.	.	.
=69	=69	=69	=69	=69	=69	=69	=69	=69	=69	=69	=69	=69	=69	=69
*^	*	*	*	*	*	*	*	*	*	*	*	*	*	*
!LO:S:color=dodgerblue	!LO:TX:t=P:dot.color=dodgerblue:problem	!	!	!	!	!	!LO:DY:a:rj	!	!	!LO:DY:a:rj	!LO:TX:a:B:t=D:color=red:note=obwiedziona niebieskim kolorem	!	!	!	!LO:DY:a:rj
(<8AA/L	4.AA\	8ee 8cc#\))	.	2.a/	.	.	f	2.cc#\	wzla-	f	2.ee\	wzla-	.	.	f
8E/	.	8r	.	.	.	.	.	.	.	.	.	.	.	.	.
*	*	*tuplet	*	*	*	*	*	*	*	*	*	*	*	*	*
!	!	!LO:TUP:a	!	!	!	!	!	!	!	!	!	!	!	!	!
8A/J)	.	(24dd\LL	.	.	.	.	.	.	.	.	.	.	.	.	.
.	.	24cc#\	.	.	.	.	.	.	.	.	.	.	.	.	.
.	.	24b#X\JJ	.	.	.	.	.	.	.	.	.	.	.	.	.
*rep	*rep	*	*	*	*	*	*	*	*	*	*	*	*	*	*
!LO:S:color=dodgerblue	!LO:TX:t=P:dot.color=dodgerblue:problem	!	!	!	!	!	!	!	!	!	!	!	!	!	!
(<8AA/L	4.AA\	8cc#\)	.	.	.	.	.	.	.	.	.	.	.	.	.
8E/	.	8r	.	.	.	.	.	.	.	.	.	.	.	.	.
*	*	*Xtuplet	*	*	*	*	*	*	*	*	*	*	*	*	*
!	!	!LO:TUP:a	!	!	!	!	!	!	!	!	!	!	!	!	!
8A/J)	.	(24dd\LL	.	.	.	.	.	.	.	.	.	.	.	.	.
.	.	24cc#\	.	.	.	.	.	.	.	.	.	.	.	.	.
.	.	24b#\JJ	.	.	.	.	.	.	.	.	.	.	.	.	.
*Xrep	*Xrep	*tuplet	*	*	*	*	*	*	*	*	*	*	*	*	*
=70	=70	=70	=70	=70	=70	=70	=70	=70	=70	=70	=70	=70	=70	=70	=70
*rep	*rep	*	*	*	*	*	*	*	*	*	*	*	*	*	*
!LO:S:color=dodgerblue	!LO:TX:t=P:dot.color=dodgerblue:problem	!	!	!	!	!	!	!	!	!	!	!	!	!	!
(<8AA/L	4.AA\	8cc#'\)	.	8a/	.	.	.	8a/	-ta	.	8cc#\	-ta.	.	.	.
8E/	.	8r	.	8r	.	.	.	8r	.	.	8r	.	.	.	.
!	!	!	!	!	!	!	!LO:DY:a	!	!	!LO:DY:a	!	!	!	!	!LO:DY:a
8A/J)	.	8cc# 8e 8c#/	.	8c#/	prze-	.	p	8e/	prze-	p	8cc#\	Prze-	.	.	p
*Xrep	*Xrep	*	*	*	*	*	*	*ij	*ij	*	*	*	*	*	*
!LO:S:color=dodgerblue	!LO:TX:t=P:dot.color=dodgerblue:problem	!	!	!	!	!	!	!	!	!	!	!	!	!	!
(<8AA/L	4.AA\	8cc# 8e 8c#/	.	4c#/	-le-	.	.	4e/	-le-	.	4cc#\	-le-	.	.	.
8C#/	.	8r	.	.	.	.	.	.	.	.	.	.	.	.	.
8A/J)	.	8cc# 8e 8c#/	.	8c#/	-ciał,	.	.	8e/	-ciał	.	8cc#\	-ciał	.	.	.
=71	=71	=71	=71	=71	=71	=71	=71	=71	=71	=71	=71	=71	=71	=71	=71
!LO:S:color=dodgerblue	!LO:TX:t=P:dot.color=dodgerblue:problem	!	!	!	!	!	!	!	!	!	!	!	!	!	!
(<8GG#/L	4.GG#\	8b 8e#X 8c#/	.	4c#/	już	.	.	2.e#X/	przez	.	2.b\	przez	.	.	.
8C#/	.	8r	.	.	.	.	.	.	.	.	.	.	.	.	.
!	!	!LO:TUP:a:color=dodgerblue:problem=klamra łukowa	!	!	!	!	!	!	!	!	!	!	!	!	!
8G#/J)	.	24d/LL	.	8d/	prze-	.	.	.	.	.	.	.	.	.	.
.	.	24c#/	.	.	.	.	.	.	.	.	.	.	.	.	.
.	.	24B#/JJ	.	.	.	.	.	.	.	.	.	.	.	.	.
*rep	*rep	*	*	*	*	*	*	*	*	*	*	*	*	*	*
!LO:S:color=dodgerblue	!LO:TX:t=P:dot.color=dodgerblue:problem	!	!	!	!	!	!	!	!	!	!	!	!	!	!
(<8GG#/L	4.GG#\	8c#'/	.	4c#/	-le-	.	.	.	.	.	.	.	.	.	.
8C#/	.	8r	.	.	.	.	.	.	.	.	.	.	.	.	.
!	!	!LO:TUP:a:color=dodgerblue:problem=klamra łukowa	!	!	!	!	!	!	!	!	!	!	!	!	!
8G#/J)	.	24d/LL	.	8d/	-ciał	.	.	.	.	.	.	.	.	.	.
.	.	24c#/	.	.	.	.	.	.	.	.	.	.	.	.	.
.	.	24B#/JJ	.	.	.	.	.	.	.	.	.	.	.	.	.
*Xrep	*Xrep	*	*	*	*	*	*	*	*	*	*	*	*	*	*
=72	=72	=72	=72	=72	=72	=72	=72	=72	=72	=72	=72	=72	=72	=72	=72
*rep	*rep	*	*	*	*	*	*	*	*	*	*	*	*	*	*
!	!	!LO:ART:color=dodgerblue	!	!	!	!	!	!	!	!	!	!	!	!	!
!LO:S:color=dodgerblue	!LO:TX:t=P:dot.color=dodgerblue:problem	!LO:ACC:color=dodgerblue	!	!	!	!	!	!	!	!	!	!	!	!	!
(<8GG#/L	4.GG#\	8c#'/	.	4c#/	juž	.	.	4.e#X/	Dar-	.	4.b\	Dar-	.	.	.
8C#/	.	8r	.	.	.	.	.	.	.	.	.	.	.	.	.
8G#/J)	.	8b 8e#X 8c#/	.	8c#/	przez	.	.	.	.	.	.	.	.	.	.
!LO:S:color=dodgerblue	!LO:TX:t=P:dot.color=dodgerblue:problem	!	!	!	!	!	!	!	!	!	!	!	!	!	!
(<8GG#/L	4.GG#\	8b 8e# 8c#/	.	4c#/	dar-	.	.	4e#/	-nie,	.	4b\	-nie,	.	.	.
8C#/	.	8r	.	.	.	.	.	.	.	.	.	.	.	.	.
!	!	!	!	!	!	!	!	!	!	!	!LO:TX:t=x	!	!	!	!
8G#/J)	.	8b 8e# 8c#/	.	8c#/	-nie,	.	.	8e#/	na	.	8b\	na	.	.	.
!!linebreak:original
*Xrep	*Xrep	*	*	*	*	*	*	*	*Xij	*	*	*	*	*	*
=73	=73	=73	=73	=73	=73	=73	=73	=73	=73	=73	=73	=73	=73	=73	=73
!	!LO:TX:t=P:dot.color=blue:problem	!	!	!	!	!	!	!LO:N:vis=4	!	!	!	!	!	!	!
8FF#/L	4.FF#\	8a 8f# 8c#/	.	4c#/	siadł	.	.	4.f#/	krza-	.	4.a/	krza-	.	.	.
8C#/	.	8r	.	.	.	.	.	.	.	.	.	.	.	.	.
*	*	*Xtuplet	*	*	*	*	*	*	*	*	*	*	*	*	*
!	!	!LO:TUP:a:color=dodgerblue:problem=klamra łukowa	!	!	!	!	!	!	!	!	!	!	!	!	!
8F#/J	.	24d/LL	.	8d/	na	.	.	.	.	.	.	.	.	.	.
.	.	24c#/	.	.	.	.	.	.	.	.	.	.	.	.	.
.	.	24B#X/JJ	.	.	.	.	.	.	.	.	.	.	.	.	.
*rep	*rep	*	*	*	*	*	*	*	*ij	*	*	*	*	*	*
!	!LO:TX:t=P:dot.color=blue:problem	!	!	!	!	!	!	!	!	!	!	!	!	!	!
8FF#/L	4.FF#\	8c#/	.	4c#/	krza-	.	.	4f#/	-ku	.	4a/	-ku	.	.	.
8C#/	.	8r	.	.	.	.	.	.	.	.	.	.	.	.	.
!	!	!LO:TUP:a:color=dodgerblue:problem=klamra łukowa	!	!	!	!	!	!	!	!	!	!	!	!	!
8F#/J	.	24d/LL	.	8d/	-ku	.	.	8f#/	siadł	.	8a/	siadł	.	.	.
.	.	24c#/	.	.	.	.	.	.	.	.	.	.	.	.	.
.	.	24B#/JJ	.	.	.	.	.	.	.	.	.	.	.	.	.
*Xrep	*Xrep	*	*	*	*	*	*	*	*	*	*	*	*	*	*
=74	=74	=74	=74	=74	=74	=74	=74	=74	=74	=74	=74	=74	=74	=74	=74
!	!LO:TX:t=P:dot.color=blue:problem	!	!	!	!	!	!	!	!	!	!	!	!	!	!
8FF#/L	4.FF#\	8c#/	.	4c#/	ró-	.	.	4.f#/	ró-	.	4.a/	ró-	.	.	.
8AA/	.	8r	.	.	.	.	.	.	.	.	.	.	.	.	.
8F#/J	.	8a 8f# 8c#/	.	8c#/	-ży	.	.	.	.	.	.	.	.	.	.
*rep	*rep	*	*	*	*	*	*	*	*	*	*	*	*	*	*
!	!LO:TX:t=P:dot.color=blue:problem	!	!	!LO:TX:a:t=90:color=red	!	!	!	!	!	!	!	!	!	!	!
8FF#/L	4.FF#\	8a 8f# 8c#/	.	4c#/	i	.	.	8f#/	-žy	.	8a/	-žy	.	.	.
8AA/	.	8r	.	.	.	.	.	8r	.	.	8r	.	.	.	.
!	!	!	!	!	!	!	!	!	!	!	!	!	!	!	!LO:DY:b
8F#/J	.	8a 8c# 8A/	.	8c#/	ocz-	.	.	8f#/	ocz-	.	8a/	ocz-	.	.	f
*Xrep	*Xrep	*	*	*	*	*	*	*	*	*	*	*	*	*	*
=75	=75	=75	=75	=75	=75	=75	=75	=75	=75	=75	=75	=75	=75	=75	=75
!LO:TX:b:rj:t=26:color=dodgerblue	!LO:TX:t=P:dot.color=blue:problem	!	!	!	!	!	!	!	!	!	!	!	!	!	!
8EE/L	4.EE\	4gn 4c# 4B/	.	4c#/	-ka-	.	.	4.e/	-ka-	.	4.gn/	-ka-	.	.	.
8BB/	.	.	.	.	.	.	.	.	.	.	.	.	.	.	.
8E/J	.	24d/LL	.	8d/	-mi	.	.	.	.	.	.	.	.	.	.
.	.	24c#/	.	.	.	.	.	.	.	.	.	.	.	.	.
.	.	24B#X/JJ	.	.	.	.	.	.	.	.	.	.	.	.	.
*rep	*rep	*	*	*	*	*	*	*	*	*	*	*	*	*	*
!	!LO:TX:t=P:dot.color=blue:problem	!	!	!	!	!	!	!	!	!	!	!	!	!	!
8EE/L	4.EE\	8c#/	.	4c#/	tam	.	.	4e/	-mi	.	4g/	-mi	.	.	.
8BB/	.	8r	.	.	.	.	.	.	.	.	.	.	.	.	.
8E/J	.	24d/LL	.	8d/	fig-	.	.	8e/	fi-	.	8g/	fi-	.	.	.
.	.	24c#/	.	.	.	.	.	.	.	.	.	.	.	.	.
.	.	24B#/JJ	.	.	.	.	.	.	.	.	.	.	.	.	.
*Xrep	*Xrep	*	*	*	*	*	*	*	*	*	*	*	*	*	*
=76	=76	=76	=76	=76	=76	=76	=76	=76	=76	=76	=76	=76	=76	=76	=76
*rep	*rep	*	*	*	*	*	*	*	*	*	*	*	*	*	*
!	!LO:TX:t=P:dot.color=blue:problem	!	!	!	!	!	!	!	!	!	!	!	!	!	!
8EE/L	4.EE\	8c#/	.	4c#/	-lar-	.	.	4.e/	-glar-	.	4.gn/	-glar-	.	.	.
8BB/	.	8r	.	.	.	.	.	.	.	.	.	.	.	.	.
8E/J	.	8gn 8c# 8B/	.	8c#/	-nie	.	.	.	.	.	.	.	.	.	.
!	!LO:TX:t=P:dot.color=blue:problem	!	!	!	!	!	!	!	!	!	!	!	!	!	!
8EE/L	4.EE\	8g 8c# 8B/	.	4c#/	tam	.	.	4e/	-nie	.	4g/	-nie	.	.	.
8BB/	.	8r	.	.	.	.	.	.	.	.	.	.	.	.	.
8E/J	.	8g 8c# 8B/	.	8c#/	fig-	.	.	8e/	wciąž	.	8g/	wciąž	.	.	.
*Xrep	*Xrep	*	*	*	*	*	*	*	*	*	*	*	*	*	*
=77	=77	=77	=77	=77	=77	=77	=77	=77	=77	=77	=77	=77	=77	=77	=77
!	!	!LO:ACC:n=3:color=dodgerblue	!	!	!	!	!	!	!	!	!	!	!	!	!
8EE/L	4.EE\	4f# 4c#X 4A#X/	.	4c#/	-lar-	.	.	2.f#/	mru-	.	2.f#/	mru-	.	.	.
8C#/	.	.	.	.	.	.	.	.	.	.	.	.	.	.	.
!	!	!LO:TUP:a:problem=klamra łukowa	!	!	!	!	!	!	!	!	!	!	!	!	!
8F#/J	.	24d/LL	.	8d/	-nie	.	.	.	.	.	.	.	.	.	.
.	.	24c#/	.	.	.	.	.	.	.	.	.	.	.	.	.
.	.	24B#X/JJ	.	.	.	.	.	.	.	.	.	.	.	.	.
*rep	*rep	*	*	*	*	*	*	*	*	*	*	*	*	*	*
8EE/L	4.EE\	8c#/	.	4c#/	mru-	.	.	.	.	.	.	.	.	.	.
8C#/	.	8r	.	.	.	.	.	.	.	.	.	.	.	.	.
!	!	!LO:TUP:a:problem=klamra łukowa	!	!	!	!	!	!	!	!	!	!	!	!	!
8F#/J	.	24d/LL	.	8d/	-žy	.	.	.	.	.	.	.	.	.	.
.	.	24c#/	.	.	.	.	.	.	.	.	.	.	.	.	.
.	.	24B#/JJ	.	.	.	.	.	.	.	.	.	.	.	.	.
*Xrep	*Xrep	*	*	*	*	*	*	*	*	*	*	*	*	*	*
=78	=78	=78	=78	=78	=78	=78	=78	=78	=78	=78	=78	=78	=78	=78	=78
*rep	*rep	*	*	*	*	*	*	*	*Xij	*	*	*	*	*	*
!	!	!	!	!LO:TX:t=P:problem=tekst słowny nieczytelny	!	!	!	!	!	!	!LO:TX:a:t=x:rj	!	!	!	!
8EE/L	4.EE\	8c#/	.	4c#/	[wciąž.]	.	.	4f#/	-ży	.	4f#/	-žy	.	.	.
8C#/	.	8r	.	.	.	.	.	.	.	.	.	.	.	.	.
8F#/J	.	8f# 8c# 8A#X/	.	8r	.	.	.	8r	.	.	8r	.	.	.	.
8EE/L	4.EE\	8f# 8c# 8A#/	.	4r	.	.	.	4r	.	.	4r	.	.	.	.
8C#/	.	8r	.	.	.	.	.	.	.	.	.	.	.	.	.
8F#/J	.	8f# 8c# 8A#/	.	8f#/	i	.	.	8f#/	i	.	8f#/	i	.	.	.
*Xrep	*Xrep	*	*	*	*	*	*	*	*	*	*	*	*	*	*
*v	*v	*	*	*	*	*	*	*	*	*	*	*	*	*	*
=79	=79	=79	=79	=79	=79	=79	=79	=79	=79	=79	=79	=79	=79	=79
*	*	*	*	*ij	*	*	*	*ij	*	*	*	*	*	*
4Dn 4DDn/	8b 8f# 8B/	.	4.B/	chy-	.	.	4.b/	chy-	.	4.f#/	chy-	.	.	.
!	!LO:S:color=dodgerblue	!	!	!	!	!	!	!	!	!	!	!	!	!
.	(8B/L	.	.	.	.	.	.	.	.	.	.	.	.	.
8r	8f#/J	.	.	.	.	.	.	.	.	.	.	.	.	.
4F# 4D\	8b/L	.	4B/	-li	.	.	4b/	-li	.	4f#/	-li	.	.	.
.	8f#/	.	.	.	.	.	.	.	.	.	.	.	.	.
8r	8B/J)	.	8B/	.	.	.	8b/	.	.	8f#/	się	.	.	.
*	*	*	*	*Xij	*	*	*	*Xij	*	*	*	*	*	*
=80	=80	=80	=80	=80	=80	=80	=80	=80	=80	=80	=80	=80	=80	=80
4C# 4CC#/	8a 8e 8c#/	.	4.c#/	.	.	.	4.a/	.	.	4.f#/	do	.	.	.
!	!LO:S:color=dodgerblue	!	!	!	!	!	!	!	!	!	!	!	!	!
.	(8c#/L	.	.	.	.	.	.	.	.	.	.	.	.	.
8r	8e/J	.	.	.	.	.	.	.	.	.	.	.	.	.
4E 4C#\	8a/L	.	4c#/	.	.	.	4a/	.	.	4f#/	niej	.	.	.
.	8e/	.	.	.	.	.	.	.	.	.	.	.	.	.
8r	8c#/J)	.	8c#/	.	.	.	8a/	.	.	8f#/	i	.	.	.
!!pagebreak:original
=81	=81	=81	=81	=81	=81	=81	=81	=81	=81	=81	=81	=81	=81	=81
4BB 4BBB/	8gn 8d/	.	4.d/	.	.	.	4.gn/	.	.	(4gn/	głów-	.	.	.
.	(8Gn/L	.	.	.	.	.	.	.	.	.	.	.	.	.
8r	8d/J	.	.	.	.	.	.	.	.	8d/)	.	.	.	.
4D 4BB/	8g/L	.	4d/	.	.	.	4g/	.	.	4d/	-kę	.	.	.
.	8d/	.	.	.	.	.	.	.	.	.	.	.	.	.
8r	8G/J)	.	8d/	.	.	.	8g/	.	.	8d/	wciąž	.	.	.
=82	=82	=82	=82	=82	=82	=82	=82	=82	=82	=82	=82	=82	=82	=82
*	*^	*	*	*	*	*	*	*	*	*	*	*	*	*
!	!	!	!	!LO:SIC:v:s=4.cn/	!	!	!	!	!	!	!	!	!	!	!
4AA 4AAA/	4.f#X/	8e-X\L	.	4.c#/	.	.	.	4.f#X/	.	.	4.e-X/	kło-	[[do	.	.
.	.	8cn\	.	.	.	.	.	.	.	.	.	.	.	.	.
8r	.	8d\J	.	.	.	.	.	.	.	.	.	.	.	.	.
!	!	!	!	!LO:SIC:v:s=4cn/	!	!	!	!	!	!	!	!	!	!	!
4Cn 4AA/	4f#/	8e-\L	.	4c#/	.	.	.	4f#/	.	.	4e-/	-ni	niej]]	.	.
.	.	8c\	.	.	.	.	.	.	.	.	.	.	.	.	.
!	!	!	!	!LO:SIC:v:s=8cn/	!	!	!	!	!	!	!LO:TX:t=x	!	!	!	!
8r	8f#/	8d\J	.	8c#/	.	.	.	8f#/	.	.	8e-/	snop	.	.	.
*	*v	*v	*	*	*	*	*	*	*	*	*	*	*	*	*
=83	=83	=83	=83	=83	=83	=83	=83	=83	=83	=83	=83	=83	=83	=83
*k[b-e-a-]	*k[b-e-a-]	*	*k[b-e-a-]	*	*	*	*k[b-e-a-]	*	*	*k[b-e-a-]	*	*	*	*
*	*^	*	*	*	*	*	*	*	*	*	*	*	*	*
!LO:TX:t=P:znaki:problem=FFn zamiast Fn, GGn zamiast Gn	!	!LO:TX:t=P:znaki:problem= fn zamiast ffn, gn zamiast ggn	!LO:DY:rj:color=dodgerblue	!LO:TX:t=P:znaki:problem= fn zamiast ffn, gn zamiast ggn	!	!	!	!LO:TX:t=P:znaki:problem=fn zamiast ffn, gn zamiast ggn	!	!	!LO:TX:t=P:znaki:problem=fn zamiast ffn, gn zamiast ggn	!	!	!	!
[2.BB- [2.BBB-/	(8gL 8e-/	8ryy	pp	[2.e-X/	.	.	.	[2.g/	wdzię-	.	4.e-/	wdzię-	.	.	.
.	8e-/	[4e-\	.	.	.	.	.	.	.	.	.	.	.	.	.
.	8g/J	.	.	.	.	.	.	.	.	.	.	.	.	.	.
.	8b-/L	4.e-\_	.	.	.	.	.	.	.	.	4b-\	-ków	.	.	.
.	8g/	.	.	.	.	.	.	.	.	.	.	.	.	.	.
.	8b-/J	.	.	.	.	.	.	.	.	.	8b-\	i	.	.	.
=84	=84	=84	=84	=84	=84	=84	=84	=84	=84	=84	=84	=84	=84	=84	=84
*^	*	*	*	*	*	*	*	*	*	*	*	*	*	*	*
4.BB-/]	2.BBB-\]	8ee-/L	4.e-\]	.	4.e-/]	.	.	.	4.g/]	.	.	[2.b-\	wo-	.	.	.
.	.	8b-/	.	.	.	.	.	.	.	.	.	.	.	.	.	.
!	!	!LO:TX:b:t=100:color=red	!	!	!	!	!	!	!	!	!	!	!	!	!	!
.	.	8g/J)	.	.	.	.	.	.	.	.	.	.	.	.	.	.
4.BB-^/	.	(4b-/	8d\L	.	8d/L	.	.	.	4b-/	-ków	.	.	.	.	.	.
.	.	.	8B-\	.	8B-/J	.	.	.	.	.	.	.	.	.	.	.
.	.	8a-/)	8d\J	.	8d/	.	.	.	8a-/	i	.	.	.	.	.	.
*v	*v	*	*	*	*	*	*	*	*	*	*	*	*	*	*	*
=85	=85	=85	=85	=85	=85	=85	=85	=85	=85	=85	=85	=85	=85	=85	=85
!LO:TX:b:t=27:color=dodgerblue	!	!	!	!	!	!	!	!	!	!	!	!	!	!	!
[2.BB- [2.BBB-/	8g/	8e-\	.	[2.e-/	.	.	.	[2.g/	wo-	.	8b-\]	-ni	.	.	.
.	&(>(<8e-/L	[4e-\	.	.	.	.	.	.	.	.	8r	.	.	.	.
.	8g/J	.	.	.	.	.	.	.	.	.	8b-\	snop	.	.	.
.	8b-/L	4.e-\_	.	.	.	.	.	.	.	.	8g/	wdzię-	.	.	.
.	8g/	.	.	.	.	.	.	.	.	.	8e-/	-ków	.	.	.
.	8b-/J	.	.	.	.	.	.	.	.	.	8g/	i	.	.	.
=86	=86	=86	=86	=86	=86	=86	=86	=86	=86	=86	=86	=86	=86	=86	=86
*^	*	*	*	*	*	*	*	*	*	*	*	*	*	*	*
4.BB-/]	2.BBB-\]	8ee-/L	4.e-\]	.	4.e-/]	.	.	.	4.g/]	.	.	2.b-\	wo-	.	.	.
.	.	8b-/	.	.	.	.	.	.	.	.	.	.	.	.	.	.
.	.	8g/J)	.	.	.	.	.	.	.	.	.	.	.	.	.	.
!LO:N:vis=4	!	!	!	!	!	!	!	!	!	!	!	!	!	!	!	!
4.BB-/	.	(4b-/	8d\L	.	8d/L	.	.	.	4b-/	-ni	.	.	.	.	.	.
.	.	.	8B-\	.	8B-/J	.	.	.	.	.	.	.	.	.	.	.
.	.	8a-/)	8d\J	.	8d/	.	.	.	8a-X/	snop	.	.	.	.	.	.
*v	*v	*	*	*	*	*	*	*	*	*	*	*	*	*	*	*
*	*v	*v	*	*	*	*	*	*	*	*	*	*	*	*	*
!!linebreak:original
=87	=87	=87	=87	=87	=87	=87	=87	=87	=87	=87	=87	=87	=87	=87
(8EE-/L	4g 4e-/	.	(4e-/	.	.	.	(4g/	wdzię-	.	4B-/	-ni	.	.	.
8BB-/	.	.	.	.	.	.	.	.	.	.	.	.	.	.
8E-/J)	8e- 8G/	.	8B-/)	.	.	.	8e-/)	.	.	8r	.	.	.	.
!	!LO:S:color=dodgerblue	!	!	!	!	!	!	!	!	!	!	!	!	!
(8E-/L	(4e- 4G/	.	8B-/	.	.	.	8e-/	-ków	.	4r	.	.	.	.
8BB-/	.	.	8r	.	.	.	8r	.	.	.	.	.	.	.
!	!	!	!	!	!	!	!	!	!	!LO:TX:a:t=o	!	!	!	!
8EE-/J)	8b- 8g/)	.	8g/	.	.	.	8b-\	i	.	8r	.	.	.	.
=88	=88	=88	=88	=88	=88	=88	=88	=88	=88	=88	=88	=88	=88	=88
*rep	*	*	*	*	*	*	*	*	*	*	*	*	*	*
!	!LO:S:color=dodgerblue	!	!	!	!	!	!	!	!	!	!	!	!	!
(8EE-/L	(4b- 4g/	.	(4g/	.	.	.	(4b-/	wo-	.	4r	.	.	.	.
8BB-/	.	.	.	.	.	.	.	.	.	.	.	.	.	.
8E-/J)	8g 8e-/)	.	8e-/)	.	.	.	8g/)	.	.	8r	.	.	.	.
!	!LO:S:color=dodgerblue	!	!	!	!	!	!	!	!	!	!	!	!	!
(8E-/L	(4g 4e-/	.	4e-/	.	.	.	4g/	-ni	.	4r	.	.	.	.
8BB-/	.	.	.	.	.	.	.	.	.	.	.	.	.	.
8EE-/J)	8ee- 8g\)	.	8b-\	.	.	.	8g/	za-	.	8ee-\	Za-	.	.	.
*Xrep	*	*	*	*	*	*	*	*	*	*	*	*	*	*
=89	=89	=89	=89	=89	=89	=89	=89	=89	=89	=89	=89	=89	=89	=89
*^	*	*	*	*	*	*	*	*	*	*	*	*	*	*
!	!LO:TX:t=P:dot.color=blue:problem	!	!	!	!	!	!	!	!	!	!LO:TX:a:B:t=E:color=red:note=obwiedziona niebieskim kolorem	!	!	!	!
8EE-/L	4.EE-\	8gg 8b-\	.	2.b-\	.	.	.	2.g/	-gar-	.	(2.ee-\	-gar-	.	.	.
8BB-/	.	8r	.	.	.	.	.	.	.	.	.	.	.	.	.
!	!	!LO:TUP:a:color=dodgerblue:problem=klamra łukowa	!	!	!	!	!	!	!	!	!	!	!	!	!
8E-/J	.	24f-X/LL	.	.	.	.	.	.	.	.	.	.	.	.	.
.	.	24e-/	.	.	.	.	.	.	.	.	.	.	.	.	.
.	.	24d/JJ	.	.	.	.	.	.	.	.	.	.	.	.	.
8EE-/L	4.EE-\	8e-/	.	.	.	.	.	.	.	.	.	.	.	.	.
8BB-/	.	8r	.	.	.	.	.	.	.	.	.	.	.	.	.
!	!	!LO:TUP:a:color=dodgerblue:problem=klamra łukowa	!	!	!	!	!	!	!	!	!	!	!	!	!
8E-/J	.	24f-/LL	.	.	.	.	.	.	.	.	.	.	.	.	.
.	.	24e-/	.	.	.	.	.	.	.	.	.	.	.	.	.
.	.	24d/JJ	.	.	.	.	.	.	.	.	.	.	.	.	.
=90	=90	=90	=90	=90	=90	=90	=90	=90	=90	=90	=90	=90	=90	=90	=90
*rep	*rep	*	*	*	*	*	*	*	*	*	*	*	*	*	*
!	!LO:TX:t=P:dot.color=blue:problem	!	!	!	!	!	!	!	!	!	!	!	!	!	!
8EE-/L	4.EE-\	8e-/	.	8e-/	.	.	.	8g/	-nia.	.	8b-\)	nia	.	.	.
8BB-/	.	8r	.	8r	.	.	.	8r	.	.	8r	.	.	.	.
8E-/J	.	8ee- 8g 8e-'/	.	8e-/	Tam	.	.	8g/	Tam	.	8ee-\	Tam	.	.	.
*	*	*	*	*	*ij	*	*	*	*ij	*	*	*	*	*	*
8EE-/L	4.EE-\	8ee- 8g 8e-'/	.	4e-/	znów	.	.	4g/	znów	.	4ee-\	znów	.	.	.
8BB-/	.	8r	.	.	.	.	.	.	.	.	.	.	.	.	.
8E-/J	.	8ee- 8g 8e-'/	.	8e-/	nad	.	.	8g/	nad	.	8ee-\	nad	.	.	.
*Xrep	*Xrep	*	*	*	*	*	*	*	*	*	*	*	*	*	*
=91	=91	=91	=91	=91	=91	=91	=91	=91	=91	=91	=91	=91	=91	=91	=91
*rep	*rep	*	*	*	*	*	*	*	*	*	*	*	*	*	*
!	!LO:TX:t=P:dot.color=blue:problem	!	!	!	!	!	!	!	!	!	!	!	!	!	!
8EE-/L	4.EE-\	4dd-X 4g 4e-/	.	4.e-/	wo-	.	.	4.g/	wo-	.	4.dd-X\	wo-	.	.	.
8BB-/	.	.	.	.	.	.	.	.	.	.	.	.	.	.	.
8E-/J	.	(24f-X/LL	.	.	.	.	.	.	.	.	.	.	.	.	.
.	.	24e-/	.	.	.	.	.	.	.	.	.	.	.	.	.
.	.	24d/JJ	.	.	.	.	.	.	.	.	.	.	.	.	.
8EE-/L	4.EE-\	8e-'/)	.	4e-/	-dą,	.	.	4g/	-dą,	.	4dd-\	-dą,	.	.	.
8BB-/	.	8r	.	.	.	.	.	.	.	.	.	.	.	.	.
8E-/J	.	(24f-/LL	.	8e-/	.	.	.	8g/	.	.	8dd-\	w_pro-	.	.	.
.	.	24e-/	.	.	.	.	.	.	.	.	.	.	.	.	.
.	.	24d/JJ	.	.	.	.	.	.	.	.	.	.	.	.	.
*Xrep	*Xrep	*	*	*	*	*	*	*	*	*	*	*	*	*	*
=92	=92	=92	=92	=92	=92	=92	=92	=92	=92	=92	=92	=92	=92	=92	=92
*rep	*rep	*	*	*	*	*	*	*	*	*	*	*	*	*	*
!	!LO:TX:t=P:dot.color=blue:problem	!	!	!	!	!	!	!	!	!	!	!	!	!	!
8EE-/L	4.EE-\	8e-/)	.	4.e-/	.	.	.	4.g/	.	.	4.dd-X\	-mien-	.	.	.
8BB-/	.	8r	.	.	.	.	.	.	.	.	.	.	.	.	.
8E-/J	.	8dd-X 8g 8e-/	.	.	.	.	.	.	.	.	.	.	.	.	.
8EE-/L	4.EE-\	8dd- 8g 8e-/	.	4e-/	.	.	.	4g/	.	.	4dd-\	-nej	.	.	.
8BB-/	.	8r	.	.	.	.	.	.	.	.	.	.	.	.	.
8E-/J	.	8dd- 8g 8e-/	.	8e-/	.	.	.	8g/	.	.	8dd-\	prze-	.	.	.
!!linebreak:original
*Xrep	*Xrep	*	*	*	*Xij	*	*	*	*Xij	*	*	*	*	*	*
=93	=93	=93	=93	=93	=93	=93	=93	=93	=93	=93	=93	=93	=93	=93	=93
!	!LO:N:vis=4	!	!	!	!	!	!	!	!	!	!	!	!	!	!
8EE-/L	4.EE-\	4cc-X 4a- 4e-/	.	2.e-/	.	.	.	2.a-/	.	.	2.cc-X\	-zro-	.	.	.
8AA-/	.	.	.	.	.	.	.	.	.	.	.	.	.	.	.
*	*	*tuplet	*	*	*	*	*	*	*	*	*	*	*	*	*
!	!	!LO:TUP:a:problem=klamra łukowa	!	!	!	!	!	!	!	!	!	!	!	!	!
8E-/J	.	24f-X/LL	.	.	.	.	.	.	.	.	.	.	.	.	.
.	.	24e-/	.	.	.	.	.	.	.	.	.	.	.	.	.
.	.	24d/JJ	.	.	.	.	.	.	.	.	.	.	.	.	.
!	!LO:N:vis=4	!	!	!	!	!	!	!	!	!	!	!	!	!	!
*rep	*rep	*	*	*	*	*	*	*	*	*	*	*	*	*	*
8EE-/L	4.EE-\	8e-'/	.	.	.	.	.	.	.	.	.	.	.	.	.
8AA-/	.	8r	.	.	.	.	.	.	.	.	.	.	.	.	.
!	!	!LO:TUP:a:problem=klamra łukowa	!	!	!	!	!	!	!	!	!	!	!	!	!
8E-/J	.	24f-/LL	.	.	.	.	.	.	.	.	.	.	.	.	.
.	.	24e-/	.	.	.	.	.	.	.	.	.	.	.	.	.
.	.	24d/JJ	.	.	.	.	.	.	.	.	.	.	.	.	.
*Xrep	*Xrep	*	*	*	*	*	*	*	*	*	*	*	*	*	*
=94	=94	=94	=94	=94	=94	=94	=94	=94	=94	=94	=94	=94	=94	=94	=94
*rep	*rep	*	*	*	*	*	*	*	*	*	*	*	*	*	*
!	!LO:N:vis=4	!	!	!	!	!	!	!	!	!	!	!	!	!	!
8EE-/L	4.EE-\	8e-/	.	4e-/	.	.	.	4e-/	.	.	4cc-Xi\	-czy,	.	.	.
8AA-/	.	8r	.	.	.	.	.	.	.	.	.	.	.	.	.
!	!	!LO:TX:a:t=110:color=red	!	!	!	!	!	!	!	!	!	!	!	!	!
8E-/J	.	8cc-X 8a- 8e-/	.	8r	.	.	.	8r	.	.	8r	.	.	.	.
!	!LO:N:vis=4	!	!	!	!	!	!	!	!	!	!LO:N:vis=4	!	!	!	!
8EE-/L	4.EE-\	8cc- 8a- 8e-/	.	4.e-/	.	.	.	4.a-/	.	.	4.cc-\	ge-	.	.	.
8AA-/	.	8r	.	.	.	.	.	.	.	.	.	.	.	.	.
8E-/J	.	8cc- 8a- 8e-/	.	.	.	.	.	.	.	.	.	.	.	.	.
*Xrep	*Xrep	*	*	*	*	*	*	*	*	*	*	*	*	*	*
=95	=95	=95	=95	=95	=95	=95	=95	=95	=95	=95	=95	=95	=95	=95	=95
!	!LO:TX:b:rj:t=28:color=dodgerblue	!	!	!	!	!	!	!LO:N:vis=4	!	!	!	!	!	!	!
8EE-/L	4.EE-\	8b-- 8g-X 8d-X/	.	4.e-/	.	.	.	4.g-X/	.	.	4.b--\	-niu-	.	.	.
8GG-X/	.	8r	.	.	.	.	.	.	.	.	.	.	.	.	.
!	!	!LO:TUP:a:color=dodgerblue	!	!	!	!	!	!	!	!	!	!	!	!	!
8E-/J	.	(24ff-X\LL	.	.	.	.	.	.	.	.	.	.	.	.	.
.	.	24ee-\	.	.	.	.	.	.	.	.	.	.	.	.	.
.	.	24dd\JJ	.	.	.	.	.	.	.	.	.	.	.	.	.
*rep	*rep	*	*	*	*	*	*	*	*	*	*	*	*	*	*
8EE-/L	4.EE-\	8ee-'\)	.	4e-/	.	.	.	4g-/	.	.	4b--\	-sze	.	.	.
8GG-/	.	8r	.	.	.	.	.	.	.	.	.	.	.	.	.
!	!	!LO:TUP:a:color=dodgerblue	!	!	!	!	!	!	!	!	!	!	!	!	!
8E-/J	.	(24ff-\LL	.	8e-/	.	.	.	8g-/	.	.	8b--\	chór	.	.	.
.	.	24ee-\	.	.	.	.	.	.	.	.	.	.	.	.	.
.	.	24dd\JJ	.	.	.	.	.	.	.	.	.	.	.	.	.
*Xrep	*Xrep	*	*	*	*	*	*	*	*	*	*	*	*	*	*
=96	=96	=96	=96	=96	=96	=96	=96	=96	=96	=96	=96	=96	=96	=96	=96
!	!LO:N:vis=4	!	!	!	!	!	!	!	!	!	!	!	!	!	!
8EE-/L	4.EE-\	8ee-'\)	.	4.e-/	.	.	.	4.g-X/	.	.	4.dd-X\	wio-	.	.	.
8GG-X/	.	8r	.	.	.	.	.	.	.	.	.	.	.	.	.
8E-/J	.	8dd-X 8g-X 8e-'/	.	.	.	.	.	.	.	.	.	.	.	.	.
*rep	*rep	*	*	*	*	*	*	*	*	*	*	*	*	*	*
!	!LO:N:vis=4	!	!	!	!	!	!	!	!	!	!	!	!	!	!
8EE-/L	4.EE-\	(4cc-X 4g- 4e-/	.	4e-/	.	.	.	8g-/	.	.	4cc-X\	-dą	.	.	.
8GG-/	.	.	.	.	.	.	.	4g-/	.	.	.	.	.	.	.
8E-/J	.	8b-- 8g- 8d-X/	.	8d-X/	.	.	.	.	.	.	8b--\	u-	.	.	.
*Xrep	*Xrep	*	*	*	*	*	*	*	*	*	*	*	*	*	*
=97	=97	=97	=97	=97	=97	=97	=97	=97	=97	=97	=97	=97	=97	=97	=97
*rep	*rep	*	*	*	*	*	*	*	*	*	*	*	*	*	*
!	!LO:N:vis=4	!	!	!	!	!	!	!	!	!	!	!	!	!	!
8EE-/L	4.EE-\	4a- 4g-X 4c/)	.	2.c/	.	.	.	2.g-X/	.	.	2.a-/	-ro-	.	.	.
8GG-X/	.	.	.	.	.	.	.	.	.	.	.	.	.	.	.
!	!	!LO:TUP:a:color=dodgerblue:problem=klamra łukowa	!	!	!	!	!	!	!	!	!	!	!	!	!
8E-/J	.	24ff-X\LL	.	.	.	.	.	.	.	.	.	.	.	.	.
.	.	24ee-\	.	.	.	.	.	.	.	.	.	.	.	.	.
.	.	24dd\JJ	.	.	.	.	.	.	.	.	.	.	.	.	.
!	!LO:N:vis=4	!	!	!	!	!	!	!	!	!	!	!	!	!	!
8EE-/L	4.EE-\	8ee-'\	.	.	.	.	.	.	.	.	.	.	.	.	.
8GG-/	.	8r	.	.	.	.	.	.	.	.	.	.	.	.	.
!	!	!LO:TUP:a:color=dodgerblue:problem=klamra łukowa	!	!	!	!	!	!	!	!	!	!	!	!	!
8E-/J	.	24ff-\LL	.	.	.	.	.	.	.	.	.	.	.	.	.
.	.	24ee-\	.	.	.	.	.	.	.	.	.	.	.	.	.
.	.	24dd\JJ	.	.	.	.	.	.	.	.	.	.	.	.	.
*Xrep	*Xrep	*	*	*	*	*	*	*	*	*	*	*	*	*	*
=98	=98	=98	=98	=98	=98	=98	=98	=98	=98	=98	=98	=98	=98	=98	=98
!	!LO:N:vis=4	!	!	!	!	!	!	!	!	!	!LO:TX:a:t=o:rj	!	!	!	!
8EE-/L	4.EE-\	8ee-\	.	4c/	.	.	.	4e-/	.	.	4a-/	-czy,	.	.	.
8AA-/	.	8r	.	.	.	.	.	.	.	.	.	.	.	.	.
8E-/J	.	8a- 8g-X 8c/	.	8r	.	.	.	8r	.	.	8r	.	.	.	.
*rep	*rep	*	*	*	*	*	*	*	*	*	*	*	*	*	*
!	!LO:N:vis=4	!	!	!LO:N:vis=4	!	!	!	!LO:N:vis=4	!	!	!	!	!	!	!
8EE-/L	4.EE-\	4a- 4g- 4c/	.	4.c/	.	.	.	4.a-/	.	.	4.a-/	i	.	.	.
8AA-/	.	.	.	.	.	.	.	.	.	.	.	.	.	.	.
!	!	!LO:N:vis=4	!	!	!	!	!	!	!	!	!	!	!	!	!
8E-/J	.	8a- 8g- 8c/	.	.	.	.	.	.	.	.	.	.	.	.	.
*Xrep	*Xrep	*	*	*	*	*	*	*	*	*	*	*	*	*	*
=99	=99	=99	=99	=99	=99	=99	=99	=99	=99	=99	=99	=99	=99	=99	=99
8EE-/L	4.EE-\	4dd-X 4a- 4f-X 4d-X/	.	4.d-X/	.	.	.	4.a-X/	.	.	4.dd-X\	co-	.	.	.
8AA-/	.	.	.	.	.	.	.	.	.	.	.	.	.	.	.
*	*	*Xtuplet	*	*	*	*	*	*	*	*	*	*	*	*	*
!	!	!LO:TUP:a:color=dodgerblue	!	!	!	!	!	!	!	!	!	!	!	!	!
8E-/J	.	(24g-X/LL	.	.	.	.	.	.	.	.	.	.	.	.	.
.	.	24f-/	.	.	.	.	.	.	.	.	.	.	.	.	.
.	.	24e-/JJ	.	.	.	.	.	.	.	.	.	.	.	.	.
*	*	*tuplet	*	*	*	*	*	*	*	*	*	*	*	*	*
8EE-/L	4.EE-\	8a- 8f-/)	.	4d-/	.	.	.	4a-/	.	.	4dd-\	-raz	.	.	.
8AA-/	.	8r	.	.	.	.	.	.	.	.	.	.	.	.	.
8E-/J	.	8dd- 8a- 8f-'/	.	8d-/	.	.	.	8a-/	.	.	8dd-\	wspa-	.	.	.
=100	=100	=100	=100	=100	=100	=100	=100	=100	=100	=100	=100	=100	=100	=100	=100
*rep	*rep	*	*	*	*	*	*	*	*	*	*	*	*	*	*
!	!	!	!	!LO:N:vis=4	!	!	!	!	!	!	!	!	!	!	!
8EE-/L	4.EE-\	4cc-X 4a- 4e-'/	.	4.e-/	.	.	.	4.a-X/	.	.	4.cc-X\	-nia-	.	.	.
8AA-/	.	.	.	.	.	.	.	.	.	.	.	.	.	.	.
!	!	!LO:TUP:a:color=dodgerblue	!	!	!	!	!	!	!	!	!	!	!	!	!
8E-/J	.	(24f-X/LL	.	.	.	.	.	.	.	.	.	.	.	.	.
.	.	24e-/	.	.	.	.	.	.	.	.	.	.	.	.	.
.	.	24d/JJ	.	.	.	.	.	.	.	.	.	.	.	.	.
8EE-/L	4.EE-\	8e-/)	.	4e-/	.	.	.	4a-/	.	.	4cc-\	-lej	.	.	.
8AA-/	.	8r	.	.	.	.	.	.	.	.	.	.	.	.	.
8E-/J	.	8cc- 8a- 8e-'/	.	8e-/	.	.	.	8a-/	.	.	8cc-\	bu-	.	.	.
!!pagebreak:original
*Xrep	*Xrep	*	*	*	*	*	*	*	*	*	*	*	*	*	*
=101	=101	=101	=101	=101	=101	=101	=101	=101	=101	=101	=101	=101	=101	=101	=101
!	!	!	!	!	!	!	!	!	!	!	!LO:TX:a:i:t=Gierymski:color=dodgerblue	!	!	!	!
8EE-/L	4.EE-\	4b- 4gn 4f-X/	.	4.f-X/	.	.	.	4.gn/	.	.	4.b-/	-ja-	.	.	.
8BB-/	.	.	.	.	.	.	.	.	.	.	.	.	.	.	.
.	.	4qqf-/	.	.	.	.	.	.	.	.	.	.	.	.	.
!	!	!LO:TUP:a:problem=klamra łukowa	!	!	!	!	!	!	!	!	!	!	!	!	!
8E-/J	.	24e-/LL	.	.	.	.	.	.	.	.	.	.	.	.	.
.	.	24d-X/	.	.	.	.	.	.	.	.	.	.	.	.	.
.	.	24c-X/JJ	.	.	.	.	.	.	.	.	.	.	.	.	.
8EE-/L	4.EE-\	8b- 8g 8d-/	.	4e-/	.	.	.	4g/	.	.	4b-/	-ją	.	.	.
8BB-/	.	8r	.	.	.	.	.	.	.	.	.	.	.	.	.
!	!	!	!	!LO:SIC:v:s=8d-/	!	!	!	!	!	!	!	!	!	!	!
8E-/J	.	8b- 8g 8d-/	.	8d/	.	.	.	8g/	.	.	8b-/	po	.	.	.
=102	=102	=102	=102	=102	=102	=102	=102	=102	=102	=102	=102	=102	=102	=102	=102
!	!LO:N:vis=4	!	!	!	!	!	!	!	!	!	!	!	!	!	!
8EE-/L	4.EE-\	4a- 4c-X/	.	4.c-X/	.	.	.	4.a-/	.	.	4.a-/	fa-	.	.	.
8AA-/	.	.	.	.	.	.	.	.	.	.	.	.	.	.	.
!	!	!LO:TUP:a:problem=klamra łukowa	!	!	!	!	!	!	!	!	!	!	!	!	!
8E-/J	.	24f-X/LL	.	.	.	.	.	.	.	.	.	.	.	.	.
.	.	24e-/	.	.	.	.	.	.	.	.	.	.	.	.	.
.	.	24d/JJ	.	.	.	.	.	.	.	.	.	.	.	.	.
*rep	*rep	*	*	*	*	*	*	*	*	*	*	*	*	*	*
!	!LO:N:vis=4	!	!	!	!	!	!	!	!	!	!	!	!	!	!
8EE-/L	4.EE-\	8e-/	.	8c-/	.	.	.	8e-/	.	.	8a-/	-li,	.	.	.
8AA-/	.	8r	.	8r	.	.	.	8r	.	.	8r	.	.	.	.
8E-/J	.	8a- 8c-/	.	8c-/	.	.	.	8e-/	.	.	8a-/	a	.	.	.
*Xrep	*Xrep	*	*	*	*	*	*	*	*	*	*	*	*	*	*
=103	=103	=103	=103	=103	=103	=103	=103	=103	=103	=103	=103	=103	=103	=103	=103
*	*	*^	*	*	*	*	*	*	*	*	*	*	*	*	*
!	!	!	!	!	!	!	!	!LO:HP:a	!	!	!LO:HP:b	!LO:TX:a:t=o:rj	!	!	!	!LO:DY:a
!	!	!	!	!	!	!	!	!	!	!	!	!	!LO:SIC:v:s=roz-	!	!	!
8EE-/L	4.EE-\	4.g 4.e-/	4.ryy	<	4.B-/	.	.	<	4.e-/	.	<	4.g/	ros-	.	.	<
8BB-/	.	.	.	.	.	.	.	.	.	.	.	.	.	.	.	.
8E-/J	.	.	.	.	.	.	.	.	.	.	.	.	.	.	.	.
*rep	*rep	*	*	*	*	*	*	*	*	*	*	*	*	*	*	*
8EE-/L	4.EE-\	4b-/	4.g 4.e-\	.	4B-/	.	.	.	4g/	.	.	4b-\	-kosz	.	.	.
8BB-/	.	.	.	.	.	.	.	.	.	.	.	.	.	.	.	.
!	!	!LO:SIC:v:s=8dd-/	!	!	!	!	!	!	!	!	!	!LO:SIC:v:s=8dd-\	!	!	!	!
8E-/J	.	8dd/	.	.	8B-/	.	.	[[	8g/	.	[[	8dd\	krysz-	.	.	[[
*Xrep	*Xrep	*	*	*	*	*	*	*	*	*	*	*	*	*	*	*
=104	=104	=104	=104	=104	=104	=104	=104	=104	=104	=104	=104	=104	=104	=104	=104	=104
!	!	!	!	!	!	!	!	!LO:DY:a	!	!	!LO:HP:b	!	!	!	!	!LO:DY:a
8EE-/L	4.EE-\	4.ff-X/	4.cc-X 4.a-\	[ >	4.c-X/	.	.	>	4.a-/	.	>	4.ff-X\	-ta-	.	.	>
8AA-/	.	.	.	.	.	.	.	.	.	.	.	.	.	.	.	.
8E-/J	.	.	.	.	.	.	.	.	.	.	.	.	.	.	.	.
*rep	*rep	*	*	*	*	*	*	*	*	*	*	*	*	*	*	*
!	!	!LO:TX:b:rj:t=120:color=red	!	!	!	!	!	!	!	!	!	!	!	!	!	!
8EE-/L	4.EE-X\	4ee-/	4cc- 4a-\	]	4c-/	.	.	]	4a-/	.	]	4ee-\	-li	.	.	.
8AA-/	.	.	.	.	.	.	.	.	.	.	.	.	.	.	.	]
8E-/J	.	8ddn/	8cc- 8a-\	.	8c-/	.	.	.	8a-/	.	.	8ddn\	ich	.	.	.
*Xrep	*Xrep	*	*	*	*	*	*	*	*	*	*	*	*	*	*	*
=105	=105	=105	=105	=105	=105	=105	=105	=105	=105	=105	=105	=105	=105	=105	=105	=105
!LO:TX:b:t=29:color=dodgerblue	!	!	!	!	!	!	!	!	!	!	!	!LO:TX:a:B:t=F:color=red:note=obwiedziona niebieskim kolorem	!	!	!	!
!	!LO:N:vis=4	!	!	!	!	!	!	!	!	!	!	!	!	!	!	!
8EE-/L	4.EE-\	4ee-/	4b- 4g\	.	2.B-/	.	.	.	2.g/	.	.	2.ee-\	o-	.	.	.
8BB-/	.	.	.	.	.	.	.	.	.	.	.	.	.	.	.	.
!	!	!LO:TUP:a:problem=klamra łukowa	!	!	!	!	!	!	!	!	!	!	!	!	!	!
8E-/J	.	24e-/LL	8ryy	.	.	.	.	.	.	.	.	.	.	.	.	.
.	.	24d-X/	.	.	.	.	.	.	.	.	.	.	.	.	.	.
.	.	24c/JJ	.	.	.	.	.	.	.	.	.	.	.	.	.	.
8EE-/L	4.EE-\	8d-/	4ryy	.	.	.	.	.	.	.	.	.	.	.	.	.
8BB-/	.	8r	.	.	.	.	.	.	.	.	.	.	.	.	.	.
!	!	!LO:TUP:a:problem=klamra łukowa	!	!	!	!	!	!	!	!	!	!	!	!	!	!
8E-/J	.	24e-/LL	8ryy	.	.	.	.	.	.	.	.	.	.	.	.	.
.	.	24d-/	.	.	.	.	.	.	.	.	.	.	.	.	.	.
.	.	24c/JJ	.	.	.	.	.	.	.	.	.	.	.	.	.	.
*	*	*v	*v	*	*	*	*	*	*	*	*	*	*	*	*	*
=106	=106	=106	=106	=106	=106	=106	=106	=106	=106	=106	=106	=106	=106	=106	=106
8EE-/L	2.EE-\	4d-X/	.	4e-/	.	.	.	4g/	.	.	4ee-\	-czy.	.	.	.
8E-/J	.	.	.	.	.	.	.	.	.	.	.	.	.	.	.
8B->/	.	8ryy	.	8r	.	.	.	8r	.	.	8r	.	.	.	.
!LO:TX:t=G... fis:color=red:problem=nieczytelny tekst	!	!	!	!LO:N:vis=4	!	!	!	!	!	!	!	!	!	!	!
!LO:TX:t=Q= tremolo:color=dodgerblue	!	!	!	!	!	!	!	!	!	!	!	!	!	!	!
4.e->\	.	8e-^/L	<	4.e-/	.	.	.	4.e-/	.	.	4.ee-\	O	.	.	.
.	.	8b-/	.	.	.	.	.	.	.	.	.	.	.	.	.
.	.	8ee-/J	[	.	.	.	.	.	.	.	.	.	.	.	.
*v	*v	*	*	*	*	*	*	*	*	*	*	*	*	*	*
=107	=107	=107	=107	=107	=107	=107	=107	=107	=107	=107	=107	=107	=107	=107
*	*ped	*	*	*	*	*	*	*	*	*	*	*	*	*
!	!	!	!	!	!	!	!	!	!LO:DY:a:rj	!	!	!	!	!LO:DY:a:rj
8DD-X/L	4.gg-X 4.dd-X 4.a-X^^\	f	4.g-X^/	.	.	.	4.g-X^/	.	f	4.gg-X^\	dzie-	.	.	f
8D-X/	.	.	.	.	.	.	.	.	.	.	.	.	.	.
8A-X/J	.	.	.	.	.	.	.	.	.	.	.	.	.	.
8d-X\L	4ff-X 4dd- 4a-^^\	.	4f-X/	.	.	.	4g-/	.	.	4ff-X\	-wcze!	.	.	.
*	*Xped	*	*	*	*	*	*	*	*	*	*	*	*	*
8A-X\	.	.	.	.	.	.	.	.	.	.	.	.	.	.
8f-X\J	8ee- 8cc-X 8a-\	.	8e-/	.	.	.	8g-/	.	.	8ee-\	strzež	.	.	.
!!linebreak:original
=108	=108	=108	=108	=108	=108	=108	=108	=108	=108	=108	=108	=108	=108	=108
8GG-X/	4.dd-X 4.b-\	.	4.d-X/	.	.	.	4.g-X/	.	.	4.dd-X\	gło-	.	.	.
8G-X\L	.	.	.	.	.	.	.	.	.	.	.	.	.	.
8B-\J	.	.	.	.	.	.	.	.	.	.	.	.	.	.
8d-X\L	4cc-X 4a-X\	.	4c-X/	.	.	.	4g-/	.	.	8cc-X\	-wy!	.	.	.
8G-\	.	.	.	.	.	.	.	.	.	8r	.	.	.	.
8g-X\J	8dd- 8b-\	.	8d-/	.	.	.	8g-/	.	.	8dd-\	strzež	.	.	.
=109	=109	=109	=109	=109	=109	=109	=109	=109	=109	=109	=109	=109	=109	=109
8C-X 8CC-X/	4.ee- 4.cc-X\	.	4.e-X/	.	.	.	4.ee-X\	.	.	4.ee-X^\	ser-	.	.	.
8E-\L	.	.	.	.	.	.	.	.	.	.	.	.	.	.
8G-X\J	.	.	.	.	.	.	.	.	.	.	.	.	.	.
8e-\L	4dd-X 4b-\	.	4e-/	.	.	.	4dd-X\	.	.	4dd-X\	-ca	.	.	.
8E-\	.	.	.	.	.	.	.	.	.	.	.	.	.	.
8e-\J	8cc-X 8a-\	.	8e-/	.	.	.	8cc-X\	.	.	8cc-X\	dzie-	.	.	.
=110	=110	=110	=110	=110	=110	=110	=110	=110	=110	=110	=110	=110	=110	=110
8E- 8EE-/	4.b- 4.g/	.	4.e-/	.	.	.	4.b-/	.	.	4.b-/	-wczy-	.	.	.
8Gn\L	.	.	.	.	.	.	.	.	.	.	.	.	.	.
8B-\J	.	.	.	.	.	.	.	.	.	.	.	.	.	.
8e-\L	4a- 4f/	.	8e-/	.	.	.	8e-/	.	.	8a-/	-no!	.	.	.
8E-\	.	.	8r	.	.	.	8r	.	.	8r	.	.	.	.
8e-\J	8b- 8g/	.	8e-/	.	.	.	8e-/	.	.	8b-/	ku	.	.	.
=111	=111	=111	=111	=111	=111	=111	=111	=111	=111	=111	=111	=111	=111	=111
*^	*	*	*	*	*	*	*	*	*	*	*	*	*	*
(<8AA-/L	2.AA-\	(4.cc-X (4.a-^/	.	4.c-X^/	.	.	.	4.c-X^/	.	.	4.cc-X^\	to-	.	.	.
8E-/	.	.	.	.	.	.	.	.	.	.	.	.	.	.	.
8A-/J	.	.	.	.	.	.	.	.	.	.	.	.	.	.	.
8E-/L	.	4b- 4e-/))	.	4B-/	.	.	.	4e-/	.	.	4b-/	-bie	.	.	.
8A-/J)	.	.	.	.	.	.	.	.	.	.	.	.	.	.	.
8r	.	8a- 8c-X/	.	8A-/	.	.	.	8a-/	.	.	8a-/	w_ró-	.	.	.
*v	*v	*	*	*	*	*	*	*	*	*	*	*	*	*	*
=112	=112	=112	=112	=112	=112	=112	=112	=112	=112	=112	=112	=112	=112	=112
*	*^	*	*	*	*	*	*	*	*	*	*	*	*	*
4.F-X 4.FF-X/	(4.a-X^/	8d-X\L	.	4.a-^/	.	.	.	4.a-^/	.	.	4.a-^/	-žo-	.	.	.
.	.	8A-X\	.	.	.	.	.	.	.	.	.	.	.	.	.
.	.	8d-\J	.	.	.	.	.	.	.	.	.	.	.	.	.
4.BB-^\	4g-X/)	8d-\L	.	4g-X/	.	.	.	4g-X/	.	.	4g-X/	-wy	.	.	.
.	.	8A-\	.	.	.	.	.	.	.	.	.	.	.	.	.
.	8f-X/	8d-\J	.	8f-X/	.	.	.	8f-X/	.	.	8f-X/	rój	.	.	.
*	*v	*v	*	*	*	*	*	*	*	*	*	*	*	*	*
=113	=113	=113	=113	=113	=113	=113	=113	=113	=113	=113	=113	=113	=113	=113
!	!	!	!LO:TX:a:t=o	!	!	!	!	!	!	!LO:TX:a:B:t=G:color=red:note=obwiedziona niebieskim kolorem	!	!	!	!
8EE-/L	(8e-L 8G/	.	2.e-/	.	.	.	2.e-/	.	.	2.e-/	pły-	.	.	.
8BB-/	8B-/	.	.	.	.	.	.	.	.	.	.	.	.	.
8E-/J	8e-/J)	.	.	.	.	.	.	.	.	.	.	.	.	.
*rep	*rep	*	*	*	*	*	*	*	*	*	*	*	*	*
8EE-/L	(8e-L 8G/	.	.	.	.	.	.	.	.	.	.	.	.	.
8BB-/	8B-/	.	.	.	.	.	.	.	.	.	.	.	.	.
8E-/J	8e-/J)	.	.	.	.	.	.	.	.	.	.	.	.	.
*Xrep	*Xrep	*	*	*	*	*	*	*	*	*	*	*	*	*
=114	=114	=114	=114	=114	=114	=114	=114	=114	=114	=114	=114	=114	=114	=114
*rep	*rep	*	*	*	*	*	*	*	*	*	*	*	*	*
8EE-/L	(8e-L 8G/	.	8e-/	.	.	.	8e-/	-ną.	.	8e-/	-ną.	.	.	.
8BB-/	8B-/	.	8r	.	.	.	8r	.	.	8r	.	.	.	.
8E-/J	8e-/J)	.	8r	.	.	.	8r	.	.	8r	.	.	.	.
8EE-/L	(8e-L 8G/	.	4r	.	.	.	4r	.	.	4r	.	.	.	.
8BB-/	8B-/	.	.	.	.	.	.	.	.	.	.	.	.	.
8E-/J	8e-/J)	.	8e-/	W_blask	.	.	8r	.	.	8r	.	.	.	.
*Xrep	*Xrep	*	*	*	*	*	*	*	*	*	*	*	*	*
=115	=115	=115	=115	=115	=115	=115	=115	=115	=115	=115	=115	=115	=115	=115
*rep	*	*	*	*	*	*	*	*	*	*	*	*	*	*
!LO:TX:b:rj:t=30:color=dodgerblue	!	!	!	!	!	!	!	!	!	!	!	!	!	!
8EE-/L	(8e-L 8G/	.	(4e-/	my-	.	.	2.r	.	.	2.r	.	.	.	.
8BB-/	8B-/	.	.	.	.	.	.	.	.	.	.	.	.	.
!	!	!	!LO:TX:a:t=130:color=red	!	!	!	!	!	!	!	!	!	!	!
8E-/J	8e-/J	.	8B-/)	.	.	.	.	.	.	.	.	.	.	.
8EE-/L	8B-/L	.	4B-/	-śli	.	.	.	.	.	.	.	.	.	.
8BB-/	8e-/)	.	.	.	.	.	.	.	.	.	.	.	.	.
8E-/J	8gJ 8e-/	.	8gn/	na-	.	.	.	.	.	.	.	.	.	.
!!linebreak:original
*Xrep	*	*	*	*	*	*	*	*	*	*	*	*	*	*
=116	=116	=116	=116	=116	=116	=116	=116	=116	=116	=116	=116	=116	=116	=116
*rep	*	*	*	*	*	*	*	*	*	*	*	*	*	*
8EE-/L	(8gL 8e-/	.	4.g/	-stro-	.	.	4r	.	.	2.r	.	.	.	.
8BB-/	8G/	.	.	.	.	.	.	.	.	.	.	.	.	.
8E-/J	8B-/J	.	.	.	.	.	8r	.	.	.	.	.	.	.
8EE-/L	8e-/L	.	8g/	-ją,	.	.	4r	.	.	.	.	.	.	.
8BB-/	8B-/	.	8r	.	.	.	.	.	.	.	.	.	.	.
8E-/J	8gJ 8e-/)	.	8e-/	spło-	.	.	8g/	spło-	.	.	.	.	.	.
*Xrep	*	*	*	*	*	*	*	*	*	*	*	*	*	*
=117	=117	=117	=117	=117	=117	=117	=117	=117	=117	=117	=117	=117	=117	=117
*rep	*	*	*	*ij	*	*	*	*	*	*	*	*	*	*
8EE-/L	(8gL 8e-^/	.	(4e-/	-mie-	.	.	(4g/	-mie-	.	2.r	.	.	.	.
8BB-/	8G/	.	.	.	.	.	.	.	.	.	.	.	.	.
8E-/J	8B-/J	.	8B-/)	.	.	.	8e-/)	.	.	.	.	.	.	.
8EE-/L	8e-/L	.	4B-/	-nią	.	.	4e-/	-nią	.	.	.	.	.	.
8BB-/	8B-/)	.	.	.	.	.	.	.	.	.	.	.	.	.
!	!	!	!	!	!	!	!	!	!	!LO:TX:a:t=o	!	!	!	!
8E-/J	8b-J 8g 8e-/	.	8g/	pierś	.	.	8b-/	pierś	.	.	.	.	.	.
*Xrep	*	*	*	*	*	*	*	*	*	*	*	*	*	*
=118	=118	=118	=118	=118	=118	=118	=118	=118	=118	=118	=118	=118	=118	=118
*rep	*	*	*	*	*	*	*	*	*	*	*	*	*	*
8EE-/L	(8b-L 8g 8e-/	.	4.g/	two-	.	.	4.b-/	two-	.	4r	.	.	.	.
8BB-/	8B-/	.	.	.	.	.	.	.	.	.	.	.	.	.
8E-/J	8e-/J	.	.	.	.	.	.	.	.	8r	.	.	.	.
8EE-/L	8g/L	.	8g/	-ją,	.	.	8b-/	-ją,	.	4r	.	.	.	.
8BB-/	8e-/)	.	8r	.	.	.	8r	.	.	.	.	.	.	.
!	!	!	!	!	!	!	!	!LO:SIC:v:s=roz-	!	!	!LO:SIC:v:s=roz-	!	!	!
8E-/J	8b-J 8g/	.	8e-/	ros-	.	.	8g/	ros-	.	8b-\	ros-	.	.	.
*Xrep	*	*	*	*	*	*	*	*	*	*	*	*	*	*
=119	=119	=119	=119	=119	=119	=119	=119	=119	=119	=119	=119	=119	=119	=119
*rep	*	*	*	*	*	*	*	*ij	*	*	*	*	*	*
8EE-/L	(8b-L 8g 8e-^/	.	4.e-/	-ko-	.	.	(4g/	-ko-	.	(4b-\	-ko-	.	.	.
8BB-/	8B-/	.	.	.	.	.	.	.	.	.	.	.	.	.
8E-/J	8e-/J)	.	.	.	.	.	8e-/)	.	.	8g\)	.	.	.	.
8EE-/L	8gL 8e-/	.	4e-/	-szą	.	.	4e-/	-szą	.	4g\	-szą	.	.	.
8BB-/	8e-'/	.	.	.	.	.	.	.	.	.	.	.	.	.
8E-/J	8ee-J 8g/	.	8g/	u-	.	.	8b-/	.	.	8ee-\	u-	.	.	.
*Xrep	*	*	*	*	*	*	*	*	*	*	*	*	*	*
=120	=120	=120	=120	=120	=120	=120	=120	=120	=120	=120	=120	=120	=120	=120
*rep	*	*	*	*	*	*	*	*	*	*	*	*	*	*
8EE-/L	(8ee-L 8g/	.	4.g/	-po-	.	.	4.b-/	.	.	4.ee-\	-po-	.	.	.
8BB-/	8e-/	.	.	.	.	.	.	.	.	.	.	.	.	.
8E-/J	8g/J)	.	.	.	.	.	.	.	.	.	.	.	.	.
8EE-/L	(8b-L 8g/	.	4g/	-ją	.	.	4g/	.	.	8ee-\	-ją	.	.	.
8BB-/	8g 8e-/)	.	.	.	.	.	.	.	.	8r	.	.	.	.
8E-/J	8ee-/J	.	8g/	i	.	.	8ee-\	.	.	8ee-\	i	.	.	.
*Xrep	*	*	*	*	*	*	*	*	*	*	*	*	*	*
=121	=121	=121	=121	=121	=121	=121	=121	=121	=121	=121	=121	=121	=121	=121
*ped	*	*	*	*	*	*	*	*	*	*	*	*	*	*
!	!LO:N:n=5:vis=2	!LO:DY:B:i:t=sff.	!	!	!	!LO:DY:a	!	!	!	!	!	!	!	!LO:DY:a:rj
8AAAn/L	2.een 2.cc#X 2.an 2.g 2.en\	sff	[2.g/	zgi-	.	f	[2.een^\	.	.	[2.een^\	zgi-	.	.	f
8EEn/	.	.	.	.	.	.	.	.	.	.	.	.	.	.
8AAn/J	.	.	.	.	.	.	.	.	.	.	.	.	.	.
8An\L	.	.	.	.	.	.	.	.	.	.	.	.	.	.
8en>\	.	.	.	.	.	.	.	.	.	.	.	.	.	.
8an>\J	.	.	.	.	.	.	.	.	.	.	.	.	.	.
*	*	*	*	*Xij	*	*	*	*Xij	*	*	*	*	*	*
=122	=122	=122	=122	=122	=122	=122	=122	=122	=122	=122	=122	=122	=122	=122
!	!	!	!	!	!	!	!LO:N:vis=2	!	!	!	!	!	!	!
(>8cc#X>\L	2.ryy	.	2.g/]	.	.	.	2.ee\]	.	.	2.ee\]	.	.	.	.
8an>\)	.	.	.	.	.	.	.	.	.	.	.	.	.	.
8een>\J	.	.	.	.	.	.	.	.	.	.	.	.	.	.
(>8ee>\L	.	.	.	.	.	.	.	.	.	.	.	.	.	.
8cc#>\	.	.	.	.	.	.	.	.	.	.	.	.	.	.
8gg>\J)	.	.	.	.	.	.	.	.	.	.	.	.	.	.
!!pagebreak:original
=123	=123	=123	=123	=123	=123	=123	=123	=123	=123	=123	=123	=123	=123	=123
*clefG2	*	*	*	*	*	*	*	*	*	*	*	*	*	*
!	!	!	!LO:SIC:v:s=4en/	!	!	!	!LO:SIC:v:s=4en/	!	!	!LO:SIC:v:s=4en/	!	!	!	!
[4.g [4.en/	[4.gg [>4.een\	.	4e-/	-ną!	.	.	4e-/	-ną!	.	4e-/	-ną!	.	.	.
.	.	.	8r	.	.	.	8r	.	.	8r	.	.	.	.
4g] 4e/]	4gg] 4ee\]	.	4r	.	.	.	4r	.	.	4r	.	.	.	.
8e 8c#X/	8ee 8cc#X\	.	8r	.	.	.	8r	.	.	8r	.	.	.	.
=124	=124	=124	=124	=124	=124	=124	=124	=124	=124	=124	=124	=124	=124	=124
*rep	*rep	*rep	*	*	*	*	*	*	*	*	*	*	*	*
[4.g [4.en/	[4.gg [>4.een\	.	2.r	.	.	.	2.r	.	.	2.r	.	.	.	.
4g] 4e/]	4gg] 4ee\]	.	.	.	.	.	.	.	.	.	.	.	.	.
8e 8c#X/	8ee 8cc#X\	.	.	.	.	.	.	.	.	.	.	.	.	.
*Xrep	*Xrep	*Xrep	*	*	*	*	*	*	*	*	*	*	*	*
=125	=125	=125	=125	=125	=125	=125	=125	=125	=125	=125	=125	=125	=125	=125
!LO:TX:b:rj:t=31:color=dodgerblue	!	!	!	!	!	!	!	!	!	!	!	!	!	!
[4.g [4.en/	(4gg 4een\	.	2.r	.	.	.	2.r	.	.	2.r	.	.	.	.
!	!LO:TX:b:t=140:color=red	!	!	!	!	!	!	!	!	!	!	!	!	!
.	8ee 8cc#X\)	.	.	.	.	.	.	.	.	.	.	.	.	.
4g] 4e/]	(4ee 4cc#\	.	.	.	.	.	.	.	.	.	.	.	.	.
!	!LO:SIC:v:s=8cc# 8an/)	!	!	!	!	!	!	!	!	!	!	!	!	!
8r	8cc# 8a-/)	.	.	.	.	.	.	.	.	.	.	.	.	.
=126	=126	=126	=126	=126	=126	=126	=126	=126	=126	=126	=126	=126	=126	=126
2.r	(4cc#X 4an^/	.	2.r	.	.	.	2.r	.	.	2.r	.	.	.	.
.	8bn 8g/	.	.	.	.	.	.	.	.	.	.	.	.	.
.	4g 4e-/	.	.	.	.	.	.	.	.	.	.	.	.	.
.	8b 8g/)	.	.	.	.	.	.	.	.	.	.	.	.	.
=127	=127	=127	=127	=127	=127	=127	=127	=127	=127	=127	=127	=127	=127	=127
*	*rep	*	*	*	*	*	*	*	*	*	*	*	*	*
2.r	(4cc#X 4an^/	.	2.r	.	.	.	2.r	.	.	2.r	.	.	.	.
.	8bn 8g/	.	.	.	.	.	.	.	.	.	.	.	.	.
.	4g 4e-/	.	.	.	.	.	.	.	.	.	.	.	.	.
.	8b 8g/)	.	.	.	.	.	.	.	.	.	.	.	.	.
*	*Xrep	*	*	*	*	*	*	*	*	*	*	*	*	*
=128	=128	=128	=128	=128	=128	=128	=128	=128	=128	=128	=128	=128	=128	=128
2.ryy	(4dd 4bn\	.	4r	.	.	.	4r	.	.	4r	.	.	.	.
.	8cc#X 8an\)	.	8r	.	.	.	8r	.	.	8r	.	.	.	.
.	(4cc# 4a\	.	4r	.	.	.	4r	.	.	4r	.	.	.	.
!	!	!	!	!	!	!LO:DY:a:rj	!	!	!LO:DY:a:rj	!	!	!	!	!LO:DY:a:rj
.	8b 8gn\)	.	8B-/	Na	.	p	8b-\	Na	p	8b-\	Na	.	.	p
*clefF4	*	*	*	*	*	*	*	*	*	*	*	*	*	*
=129	=129	=129	=129	=129	=129	=129	=129	=129	=129	=129	=129	=129	=129	=129
*k[f#c#g#d#]	*k[f#c#g#d#]	*	*k[f#c#g#d#]	*	*	*	*k[f#c#g#d#]	*	*	*k[f#c#g#d#]	*	*	*	*
!	!LO:TX:t=P:znaki:problem= f# zamiast ff#, g# zamiast gg#	!	!	!	!	!	!	!	!	!	!	!	!	!
!	!LO:TX:b:B:t=A=:color=red	!	!LO:TX:t=P:znaki:problem= f# zamiast ff#, g# zamiast gg#	!	!	!	!LO:TX:t=P:znaki:problem= f# zamiast ff#, g# zamiast gg#	!	!	!LO:TX:t=P:znaki:problem= f# zamiast ff#, g# zamiast gg#	!	!	!	!
8FF#/yy	(4b 4gn 4e^/yy	.	(4e/	czo-	.	.	(4gn/	czo-	.	(4b/	czo-	.	.	.
(8C#\Lyy	.	.	.	.	.	.	.	.	.	.	.	.	.	.
!	!LO:TX:b:t=pag. 3:color=dodgerblue	!	!	!	!	!	!	!	!	!	!	!	!	!
8F#\Jyy	8a#X 8f#/yy	.	8c#/)	-le	.	.	8f#/)	-le	.	8a/)	.	.	.	.
8c#\L)yy	8a#L 8f#'/yy	.	4c#/	kwiat	.	.	8f#/L	kwiat	.	8a/L	-le	.	.	.
8B'\yy	8g#X 8e#X'/yy	.	.	.	.	.	8e#X/J	.	.	8g#/J	.	.	.	.
8A#X'\Jyy	8f#J 8en'/)yy	.	8f#/	a	.	.	8en/	a	.	8f#/	ma	.	.	.
!!linebreak:original
=130	=130	=130	=130	=130	=130	=130	=130	=130	=130	=130	=130	=130	=130	=130
8BB/yy	4dd# 4f# 4d#/yy	.	4f#/	w_rę-	.	.	4d#/	w_rę-	.	[4.dd#\	kwiat	.	.	.
(8D#\Lyy	.	.	.	.	.	.	.	.	.	.	.	.	.	.
*	*	*	*	*ij	*	*	*	*	*	*	*	*	*	*
8F#\Jyy	8f# 8d#'/yy	.	8d#/	-ku	.	.	8f#/	-ku	.	.	.	.	.	.
8B\L)yy	4f# 4d#'/yy	.	8d#/	kłos	.	.	8f#/	kłos	.	4dd#\]	.	.	.	.
8D#\yy	.	.	8r	.	.	.	8r	.	.	.	.	.	.	.
8F#\Jyy	8b 8f# 8d#/yy	.	8d#/	pod	.	.	8d#/	pod	.	8b\	pod	.	.	.
=131	=131	=131	=131	=131	=131	=131	=131	=131	=131	=131	=131	=131	=131	=131
*	*^	*	*	*	*	*	*	*	*	*	*	*	*	*
*	*	*	*	*	*	*	*	*	*ij	*	*	*	*	*	*
8FF#/yy	(<8b/Lyy	4e\yy	.	8c#/	sto-	.	.	8e/	sto-	.	8b/L	sto-	.	.	.
!	!	!	!	!	!	!	!	!	!	!	!LO:SIC:v:s=8a#/J	!	!	!	!
(8C#\Lyy	8a#X/)yy	.	.	8r	.	.	.	8r	.	.	8a/J	.	.	.	.
8F#\Jyy	8b/Jyy	8e\yy	.	8c#/	-pą	.	.	8e/	-pą	.	8b/	-pą	.	.	.
!	!	!	!	!	!	!	!	!	!	!	!LO:SIC:v:s=8a#/L	!	!	!	!
8c#\Lyy	(<8a#/Lyy	4e\yy	.	8c#/	gnie-	.	.	8e/	gnie-	.	8a/L	gnie-	.	.	.
8B\)yy	8g#/)yy	.	.	8r	.	.	.	8r	.	.	8g#/J	.	.	.	.
8A#X\Jyy	8f#/Jyy	8e\yy	.	8c#/	-cie	.	.	8e/	-cie	.	8f#/	-cie	.	.	.
*	*v	*v	*	*	*	*	*	*	*	*	*	*	*	*	*
=132	=132	=132	=132	=132	=132	=132	=132	=132	=132	=132	=132	=132	=132	=132
8BB'/yy	4dd# 4f# 4d#/yy	.	4.B/	wę-	.	.	(4d#/	wę-	.	4.dd#\	wę-	.	.	.
(8D#\Lyy	.	.	.	.	.	.	.	.	.	.	.	.	.	.
8F#\Jyy	8b 8f# 8d#/yy	.	.	.	.	.	8b/)	.	.	.	.	.	.	.
8B\L)yy	4b 4f# 4d#/yy	.	8d#/	-ža	.	.	8f#/	-ža	.	8b\	-ža	.	.	.
8D#'\yy	.	.	8r	.	.	.	8r	.	.	8r	.	.	.	.
8F#'\Jyy	(8dd# (8d#/yy	.	8d#/	u-	.	.	8b/	u-	.	8dd#\	u-	.	.	.
=133	=133	=133	=133	=133	=133	=133	=133	=133	=133	=133	=133	=133	=133	=133
*	*^	*	*	*	*	*	*	*	*	*	*	*	*	*
8FF#'/yy	4ff# 4f#/))yy	4.ryyyy	.	4c#/	-žy-	.	.	4a#X/	-žy-	.	4ff#\	-žy-	.	.	.
(8C#\Lyy	.	.	.	.	.	.	.	.	.	.	.	.	.	.	.
8F#\Jyy	8cc# 8a#X 8f#/yy	.	.	8f#/	-žnia	.	.	8a#/	-žnia	.	8cc#\	-žnia	.	.	.
8c#\L)yy	(<8cc#/Lyy	4a# 4f#\yy	.	8f#/	kwiat	.	.	8a#/	kwiat	.	8cc#\L	kwiat	.	.	.
8A#X'\yy	8ee#X/)yy	.	.	8r	.	.	.	8r	.	.	8ee#X\J	.	.	.	.
8F#'\Jyy	8dd#/Jyy	8a# 8f#\yy	.	8f#/	per-	.	.	8a#/	per-	.	8dd#\	per-	.	.	.
*	*v	*v	*	*	*	*	*	*	*	*	*	*	*	*	*
=134	=134	=134	=134	=134	=134	=134	=134	=134	=134	=134	=134	=134	=134	=134
!	!	!	!	!	!	!	!	!	!	!LO:TX:a:t=o:rj	!	!	!	!
8FF#'/yy	8cc# 8e#X/yy	.	4e#X/	-ła-	.	.	4g#/	-ła-	.	4cc#\	-ła-	.	.	.
(8C#\Lyy	8ryy	.	.	.	.	.	.	.	.	.	.	.	.	.
8F#\Jyy	8g# 8e#/yy	.	8e#/	-mi	.	.	8g#/	-mi	.	8g#/	-mi	.	.	.
8c#\L)yy	8g# 8e#/yy	.	8e#/	ros,	.	.	8g#/	ros,	.	4g#/	ros,	.	.	.
8B'\yy	8ryy	.	8r	.	.	.	8r	.	.	.	.	.	.	.
8G#'\Jyy	8b 8e#/yy	.	8e#/	i	.	.	8g#/	i	.	8b/	i	.	.	.
=135	=135	=135	=135	=135	=135	=135	=135	=135	=135	=135	=135	=135	=135	=135
*	*^	*	*	*	*	*	*	*	*	*	*	*	*	*
!LO:TX:b:t=32:color=dodgerblue	!	!	!	!	!	!	!	!	!	!	!LO:SIC:v:s=8a#/L	!	!	!	!
8FF#/yy	(<8a#X/Lyy	4e\yy	.	4en/	ser-	.	.	8f#/L	ser-	.	8a/L	ser-	.	.	.
!	!LO:TX:a:t=150:color=red	!	!	!	!	!	!	!	!	!	!	!	!	!	!
(8B\Lyy	8g#/yy	.	.	.	.	.	.	8g#/J	.	.	8g#/J	.	.	.	.
8A#X\Jyy	8f#/J)yy	8f#\yy	.	8e/	-ca	.	.	8f#/	-ca	.	8f#/	-ca	.	.	.
8G#\Lyy	4dd# 4f#/yy	4.ryyyy	.	(4f#/	sprzę-	.	.	4.f#/	sprzę-	.	(4dd#\	sprzę-	.	.	.
8A#\)yy	.	.	.	.	.	.	.	.	.	.	.	.	.	.	.
!	!LO:TX:b:B:t==B:color=red	!	!	!	!	!	!	!	!	!	!	!	!	!	!
8F#\Jyy	8cc# 8e/yy	.	.	8e/)	.	.	.	.	.	.	8cc#\)	.	.	.	.
*	*	*	*	*	*Xij	*	*	*	*Xij	*	*	*	*	*	*
=136	=136	=136	=136	=136	=136	=136	=136	=136	=136	=136	=136	=136	=136	=136	=136
!LO:S:color=dodgerblue	!LO:TX:t=P:problem=fragment z prawego boku uwzględniony w drugiej warstwie	!	!	!	!	!	!	!	!	!	!LO:TX:a:B:t=H:color=red:note=obwiedziona niebieskim kolorem	!	!	!	!
!	!LO:TX:t=P:stem.color=blue:problem	!	!	!	!	!	!	!	!	!	!	!	!	!	!
(8BB/L	8b@ 8d@#/	8r	.	8d#/	-ža	.	.	8f#/	-ža.	.	8b\	-ža.	.	.	.
8D#/	8r@	(8d#\L	.	8r	.	.	.	8r	.	.	8r	.	.	.	.
!	!LO:TX:t=P:stem.color=blue:problem	!	!	!	!	!	!	!	!	!	!	!	!	!	!
8F#/J)	8ff#@ 8f#@/	8f#\J)	.	8d#/	.	.	.	8f#/	.	.	8f#/	Z_niej	.	.	.
!LO:S:color=dodgerblue	!LO:S:color=dodgerblue	!	!	!	!	!	!	!	!	!	!	!	!	!	!
(8FF#/L	(4ff# 4dd# 4b 4f#/	8r	.	8d#/	.	.	.	8f#/	.	.	4f#/	tyl-	.	.	.
8BB/	.	(8d#\L	.	8r	.	.	.	8r	.	.	.	.	.	.	.
!	!LO:TX:b:t=Vcell col V. 1m	!	!	!	!	!	!	!	!	!	!	!	!	!	!
!	!LO:TX:a:t=Clar ed Canto.\nV. 2do; Violon	!	!	!	!	!	!	!	!	!	!	!	!	!	!
8F#/J)	8gg# 8b/)	8f#\J)	.	8d#/	.	.	.	8f#/	.	.	8g#/	-ko	.	.	.
*	*v	*v	*	*	*	*	*	*	*	*	*	*	*	*	*
!!linebreak:original
=137!|:	=137!|:	=137!|:	=137!|:	=137!|:	=137!|:	=137!|:	=137!|:	=137!|:	=137!|:	=137!|:	=137!|:	=137!|:	=137!|:	=137!|:
*[>A,A,B]	*[>A,A,B]	*[>A,A,B]	*[>A,A,B]	*[>A,A,B]	*[>A,A,B]	*[>A,A,B]	*[>A,A,B]	*[>A,A,B]	*[>A,A,B]	*[>A,A,B]	*[>A,A,B]	*[>A,A,B]	*[>A,A,B]	*[>A,A,B]
*>A	*>A	*>A	*>A	*>A	*>A	*>A	*>A	*>A	*>A	*>A	*>A	*>A	*>A	*>A
!	!LO:SIC:v:s=(4aa# 4ff# 4dd# 4a#\	!	!	!	!	!	!	!	!	!	!	!	!	!
!LO:S:color=dodgerblue	!LO:S:color=dodgerblue	!	!	!	!	!	!	!	!	!	!	!	!	!
(8BB\L	(4aa 4ff# 4dd# 4a\	<	8d#/	.	.	.	8f#/	.	.	4a\	płód,	.	.	.
8D#\	.	.	8r	.	.	.	8r	.	.	.	.	.	.	<
!	!	!	!	!	!	!	!	!	!	!	!	!	!	!LO:DY:a
8F#\J)	8bb 8b\)	.	8d#/	.	.	.	8f#/	.	.	8b\	z_niej	.	.	.
!LO:S:color=dodgerblue	!LO:S:color=dodgerblue	!	!	!	!	!	!	!	!	!	!	!	!	!
(8FF#\L	(4ccc# 4ff# 4cc#\	.	8d#/	.	.	.	8f#/	.	.	4cc#\	žy-	.	.	.
8BB\	.	.	8r	.	.	.	8r	.	.	.	.	.	.	.
8F#\J)	8ddd# 8dd#\)	[[	8d#/	.	.	.	8f#/	.	.	8dd#\	-cie	.	.	[[
=138	=138	=138	=138	=138	=138	=138	=138	=138	=138	=138	=138	=138	=138	=138
!LO:SIC:v:s=(8AA#\L	!	!	!	!	!	!	!	!	!	!	!	!	!	!
!LO:S:color=dodgerblue	!LO:S:color=dodgerblue	!	!	!	!	!	!	!	!	!	!	!	!	!LO:DY:a
(8AA\L	(4eee 4ff# 4ee\	>	8c#/	.	.	.	8f#/	.	.	4ee\	drga	.	.	>
8C#\	.	.	8r	.	.	.	8r	.	.	.	.	.	.	.
8F#\J)	8ddd# 8dd#\	.	8f#/	.	.	.	8f#/	.	.	8dd#\	z_niej	.	.	.
!LO:S:color=dodgerblue	!	!	!	!	!	!	!	!	!	!	!	!	!	!
(8FF#\L	4ccc# 4ff# 4cc#\	.	8e/	.	.	.	8f#/	.	.	4cc#\	wszyst-	.	.	.
8C#\	.	.	8r	.	.	.	8r	.	.	.	.	.	.	.
!	!	!	!	!	!	!	!	!	!	!LO:TX:a:t=o	!	!	!	!
8F#\J)	8bb#X 8b#X\	.	8e/	.	.	.	8f#/	.	.	8b#X\	-ko	.	.	]
=139	=139	=139	=139	=139	=139	=139	=139	=139	=139	=139	=139	=139	=139	=139
!LO:SIC:v:s=(8AA#/L	!	!	!	!	!	!	!	!	!	!	!	!	!	!
!LO:S:color=dodgerblue	!	!	!	!	!	!	!	!	!	!	!	!	!	!
(8AA/L	4ccc# 4ff# 4ee 4cc#\	.	8e/	.	.	.	8f#/	.	.	4cc#\	tchnie	.	.	.
8C#/	.	]	8r	.	.	.	8r	.	.	.	.	.	.	.
8F#/J)	8gg# 8g#\	.	8c#/	.	.	.	8e/	.	.	8g#/	w_prze-	.	.	.
!LO:S:color=dodgerblue	!LO:SIC:v:s=4aa# 4ee 4a#\)	!	!	!	!	!	!	!	!	!LO:SIC:v:s=4.a#/	!	!	!	!
(8FF#/L	4aa 4ee 4a\)	.	4.c#/	.	.	.	4.e/	.	.	4.a/	-strze-	.	.	.
8C#/	.	.	.	.	.	.	.	.	.	.	.	.	.	.
!	!LO:S:color=dodgerblue	!	!	!	!	!	!	!	!	!	!	!	!	!
8F#/J)	(8ff# 8f#\	.	.	.	.	.	.	.	.	.	.	.	.	.
=140	=140	=140	=140	=140	=140	=140	=140	=140	=140	=140	=140	=140	=140	=140
!LO:S:color=dodgerblue	!	!	!	!	!	!	!	!	!	!	!	!	!	!
(8BB/L	8ddd# 8bb 8ff# 8dd#\)	.	8B/	.	.	.	8d#/	.	.	8b/	-ni,	.	.	.
8D#/	8r	.	8r	.	.	.	8r	.	.	8r	.	.	.	.
8F#/J)	8ff# 8f#\	.	8d#/	.	.	.	8f#/	.	.	8f#/	bo-	.	.	.
!LO:S:color=dodgerblue	!LO:S:color=dodgerblue	!	!	!	!	!	!	!	!	!	!	!	!	!
(8FF#/L	(4ff# 4dd# 4b 4f#\	.	8d#/	.	.	.	8f#/	.	.	4f#/	-gi-	.	.	.
8BB/	.	.	8r	.	.	.	8r	.	.	.	.	.	.	.
8F#/J)	8gg# 8g#\)	<	8d#/	.	.	.	8f#/	.	.	8g#/	-ni	.	.	.
=141	=141	=141	=141	=141	=141	=141	=141	=141	=141	=141	=141	=141	=141	=141
*rep	*	*	*	*	*	*	*	*	*	*	*	*	*	*
!	!LO:SIC:v:s=(4aa# 4ff# 4dd# 4a#\	!	!	!	!	!	!	!	!	!	!	!	!	!
!LO:S:color=dodgerblue	!LO:S:color=dodgerblue	!	!	!	!	!	!	!	!	!LO:SIC:v:s=4a#\	!	!	!	!LO:DY:a
(8BB/L	(4aa 4ff# 4dd# 4a\	.	8d#/	.	.	.	8f#/	.	.	4a\	cnót	.	.	<
8D#/	.	.	8r	.	.	.	8r	.	.	.	.	.	.	.
8F#/J)	8bb 8b\)	.	8d#/	.	.	.	8f#/	.	.	8b\	niech	.	.	.
!LO:S:color=dodgerblue	!LO:S:color=dodgerblue	!	!	!	!	!	!	!	!	!	!	!	!	!
(8FF#/L	(4ccc# 4ff# 4cc#\	.	8d#/	.	.	.	8f#/	.	.	4cc#\	jas-	.	.	.
8BB/	.	.	8r	.	.	.	8r	.	.	.	.	.	.	.
8F#/J)	8ddd# 8dd#\)	[	8d#/	.	.	.	8f#/	.	.	8dd#\	-ność	.	.	[[
*Xrep	*	*	*	*	*	*	*	*	*	*	*	*	*	*
=142	=142	=142	=142	=142	=142	=142	=142	=142	=142	=142	=142	=142	=142	=142
!LO:SIC:v:s=(8AA#/L	!	!	!	!	!	!	!	!	!	!	!	!	!	!
!LO:S:color=dodgerblue	!LO:S:color=dodgerblue	!	!	!	!	!	!	!	!	!	!	!	!	!LO:DY:a
(8AA/L	(4eee 4ff# 4ee\	>	8c#/	.	.	.	8f#/	.	.	4ee\	twa	.	.	>
8C#/	.	.	8r	.	.	.	8r	.	.	.	.	.	.	.
8F#/J)	8ddd# 8dd#\)	.	8f#/	.	.	.	8f#/	.	.	8dd#\	nam	.	.	.
!LO:S:color=dodgerblue	!LO:S:color=dodgerblue	!	!	!	!	!	!	!	!	!	!	!	!	!
.	8qddd#/	.	.	.	.	.	.	.	.	.	.	.	.	.
!	!LO:S:color=dodgerblue	!	!	!	!	!	!	!	!	!	!	!	!	!
(8FF#/L	(4ccc# 4ff# 4cc#\	.	8e/	.	.	.	8f#/	.	.	4cc#\	žy-	.	.	.
8C#/	.	.	8r	.	.	.	8r	.	.	.	.	.	.	.
8F#/J)	8bb#X 8b#X\	.	8e/	.	.	.	8f#/	.	.	8b#X\	-cie	.	.	]
=143	=143	=143	=143	=143	=143	=143	=143	=143	=143	=143	=143	=143	=143	=143
*rep	*	*	*	*	*	*	*	*	*	*	*	*	*	*
!LO:SIC:v:s=(8AA#/L	!	!	!	!	!	!	!	!	!	!	!	!	!	!
!LO:S:color=dodgerblue	!	!	!	!	!	!	!	!	!	!	!	!	!	!
(8AA/L	4ccc# 4ff# 4ee 4cc#\)	.	8e/	.	.	.	8f#/	.	.	4cc#\	o-	.	.	.
8C#/	.	.	8r	.	.	.	8r	.	.	.	.	.	.	.
8F#/J)	8gg# 8ee 8cc# 8g#'\	]	8c#/	.	.	.	8e/	.	.	8g#/	-pro-	.	.	.
!LO:S:color=dodgerblue	!LO:SIC:v:s=4aa# 4ee 4cc# 4a#'\	!	!	!	!	!	!	!	!	!LO:SIC:v:s=(4a#/	!	!	!	!
(8FF#/L	4aa 4ee 4cc# 4a'\	.	4.c#\	.	.	.	4.e\	.	.	(4a/	-mie-	.	.	.
8C#/	.	.	.	.	.	.	.	.	.	.	.	.	.	.
!	!LO:SIC:v:s=8ff# 8ee 8cc# 8a#\	!	!	!	!	!	!	!	!	!	!	!	!	!
8F#/J)	8ff# 8ee 8cc# 8a\	.	.	.	.	.	.	.	.	8f#/)	.	.	.	.
!!pagebreak:original
*Xrep	*	*	*	*	*	*	*	*	*	*	*	*	*	*
=144	=144	=144	=144	=144	=144	=144	=144	=144	=144	=144	=144	=144	=144	=144
*^	*	*	*	*	*	*	*	*	*	*	*	*	*	*
!	!	!	!	!	!	!	!	!	!	!	!LO:TX:a:B:t=I:color=red:note=obwiedziona niebieskim kolorem	!	!	!	!
!	!	!	!	!	!	!	!	!	!	!	!LO:TX:a:t=o	!	!	!	!
8BB\L	4.ryy	4ddd# 4bb 4ff# 4dd#\	.	4B/	.	.	.	4d#/	ni	.	4b\	-ni.	.	.	.
8F#\	.	.	.	.	.	.	.	.	.	.	.	.	.	.	.
8B\J	.	8ddd# 8dd#\	.	8r	.	.	.	8r	.	.	8r	.	.	.	.
!	!	!LO:ART:color=dodgerblue	!	!	!	!	!	!	!	!	!	!	!	!	!
!	!	!LO:S:color=dodgerblue	!	!	!	!	!	!	!	!	!	!	!	!	!
4.An/	8An\L	(4fff# 4ff#^<\	.	4.B/	o	.	.	(4an/	Bo-	.	(4ff#\	Bo-	[[Niech	.	.
.	8F#\	.	.	.	.	.	.	.	.	.	.	.	.	.	.
.	8BB\J	8eee#X 8ee#X\	.	.	.	.	.	8g#/)	.	.	8ee#X\)	.	.	.	.
=145	=145	=145	=145	=145	=145	=145	=145	=145	=145	=145	=145	=145	=145	=145	=145
!LO:TX:b:rj:t=35:color=red	!	!	!	!	!	!	!	!	!	!	!	!	!	!	!
!LO:TX:b:rj:t=33:color=dodgerblue	!	!	!	!	!	!	!	!	!	!	!	!	!	!	!
4.G#/	8G#\L	8ccc# 8cc#\)	.	2.B/	Ma-	.	.	(4g#/	-gi-	.	(4ee#X\	-gi-	ży-	.	.
.	8E#X\	8r	.	.	.	.	.	.	.	.	.	.	.	.	.
!	!	!LO:TX:b:t=160:color=red	!	!	!	!	!	!	!	!	!	!	!	!	!
.	8BB\J	8ccc# 8cc#\	.	.	.	.	.	8gn/)	.	.	8een\)	.	.	.	.
!	!	!LO:ART:color=dodgerblue	!	!	!	!	!	!	!	!	!	!	!	!	!
!	!	!LO:S:color=dodgerblue	!	!	!	!	!	!	!	!	!	!	!	!	!
4.Gn/	8Gn\L	(4eeen 4een^<\	.	.	.	.	.	(4g/	-ni	.	(4ee\	-ni	-cie	.	.
.	8E#\	.	.	.	.	.	.	.	.	.	.	.	.	.	.
.	[8BB\J	8ddd# 8dd#\	.	.	.	.	.	8f#/)	.	.	8dd#\)	.	.	.	.
=146	=146	=146	=146	=146	=146	=146	=146	=146	=146	=146	=146	=146	=146	=146	=146
8D#/L	4.BB\]	8bb 8b\)	.	4B/	-tko.	.	.	4.f#/	cnót	.	(4dd#\	cnót	nam	.	.
8F#/	.	8r	.	.	.	.	.	.	.	.	.	.	.	.	.
8B/J	.	8bb 8b\	.	8r	.	.	.	.	.	.	8ddn\)	.	.	.	.
!	!	!LO:S:color=dodgerblue	!	!	!	!	!	!	!	!	!	!	!	!	!
!	!	!LO:ART:color=dodgerblue	!	!	!	!	!	!	!	!	!	!	!	!	!
8Dn/L	4.BB\	(4dddn 4ddn^<\	.	(4B/	niech	.	.	4.gn/	niech	.	(4dd\	niech	o-	.	.
8Gn/	.	.	.	.	.	.	.	.	.	.	.	.	.	.	.
8B/J	.	8ccc# 8cc#\	.	8c#/)	.	.	.	.	.	.	8cc#\)	.	-pro-	.	.
=147	=147	=147	=147	=147	=147	=147	=147	=147	=147	=147	=147	=147	=147	=147	=147
!	!LO:N:vis=4	!	!	!	!	!	!	!	!	!	!	!	!	!	!
8AA/L	4.AA\	8eee 8ee\)	.	4.c#/	ja-	.	.	4.gn/	ja-	.	(4ee\	ja-	-mie-	.	.
8E/	.	8r	.	.	.	.	.	.	.	.	.	.	.	.	.
8c#/J	.	8aa 8a\	.	.	.	.	.	.	.	.	8a/)	.	-ni	.	.
!	!LO:SIC:v:s=4.F# 4.Dn\	!LO:ART:color=dodgerblue	!	!	!	!	!	!	!	!	!	!	!	!	!
8cn/L	4.F# 4.D#\	[4cccn 4ccn^\	.	4.dn/	-sność	.	.	4.f#/	-sność	.	(4ccn\	-sno-	ja-	.	.
8A/	.	.	.	.	.	.	.	.	.	.	.	.	.	.	.
!LO:SIC:v:s=8dn/J	!	!	!	!	!	!	!	!	!	!	!	!	!	!	!
8d#/J	.	16ccc]LL 16cc\	.	.	.	.	.	.	.	.	8b\)	-ść	-snośc	.	.
.	.	16bbJJ 16b\	.	.	.	.	.	.	.	.	.	.	.	.	.
*v	*v	*	*	*	*	*	*	*	*	*	*	*	*	*	*
=148	=148	=148	=148	=148	=148	=148	=148	=148	=148	=148	=148	=148	=148	=148
!LO:S:color=dodgerblue	!	!	!LO:ACC:color=dodgerblue	!	!	!	!	!	!	!	!	!	!	!
(8Gn\L	8bb 8b\	.	4dn@/	twa	.	.	4gn/	twa	.	4.b\	twa	twa]]	.	.
8B\	8r	.	.	.	.	.	.	.	.	.	.	.	.	.
8Dn\J	8r	.	8r	.	.	.	8r	.	.	.	.	.	.	.
!	!LO:SIC:v:s=(4ggn 4ff# 4ddn 4gn\	!	!	!	!	!	!	!	!	!	!	!	!	!
8G\L	(4ggn 4ff# 4dd# 4gn\	.	4r	.	.	.	4r	.	.	(4gn/	nam	.	.	.
8BB\	.	.	.	.	.	.	.	.	.	.	.	.	.	.
8D\J)	8aa 8a\	.	8r	.	.	.	8r	.	.	8a/)	.	.	.	.
=149	=149	=149	=149	=149	=149	=149	=149	=149	=149	=149	=149	=149	=149	=149
!LO:S:color=dodgerblue	!LO:SIC:v:s=4bb 4ffn 4ddn 4b\	!	!	!	!	!	!	!	!	!LO:TX:a:rj:t=o	!	!	!	!
(8GGn/L	4bb 4ffn 4dd# 4b\	.	4r	.	.	.	4r	.	.	4b\	žy-	.	.	.
!LO:ACC:color=dodgerblue	!	!	!	!	!	!	!	!	!	!	!	!	!	!
8Dn/	.	.	.	.	.	.	.	.	.	.	.	.	.	.
8B/J)	8cccn 8ccn\	<	8r	.	.	.	8r	.	.	8ccn\	-cie	.	.	.
*	*	*	*	*above	*	*	*	*	*	*	*	*	*	*
!LO:S:color=dodgerblue	!LO:SIC:v:s=4dddn 4gg# 4ddn\	!	!	!	!	!	!	!	!	!LO:ACC:color=dodgerblue	!	!	!	!
(8GG/L	4ddd# 4gg# 4ddn\	.	4.gn/	niech	.	.	4.gn/	niech	.	4ddn\	o-	.	.	.
8D/	.	.	.	.	.	.	.	.	.	.	.	.	.	.
8B/J)	8ddd#X 8dd#X\	.	.	.	.	.	.	.	.	8dd#X\	-pro-	.	.	.
=150	=150	=150	=150	=150	=150	=150	=150	=150	=150	=150	=150	=150	=150	=150
*^	*	*	*	*	*	*	*	*	*	*	*	*	*	*
!	!LO:ACC:color=dodgerblue	!	!	!	!	!	!	!	!	!	!	!	!	!	!
8E/L	4.Cn\	4eee 4cccn 4ee\)	.	[4.cn/	ja-	.	.	4.ccn\	ja-	.	[4.ee\	-mie-	.	.	.
!LO:ACC:color=dodgerblue	!	!	!	!	!	!	!	!	!	!	!	!	!	!	!
8Gn/	.	.	.	.	.	.	.	.	.	.	.	.	.	.	.
8cn/J	.	8eee 8ccc 8ee\	.	.	.	.	.	.	.	.	.	.	.	.	.
!LO:TX:t=P:beam.color=dodgerblue:problem	!	!	!	!	!	!	!	!	!	!	!	!	!	!	!
8E/L	4.C@\	(8eeeL 8bb 8ee\	.	4c/]	.	.	.	4.b\	-sność	.	8ee\L]	.	.	.	.
8G/	.	8ddd#X 8dd#X\	.	.	.	.	.	.	.	.	8dd#X\J	.	.	.	.
8B@/J	.	8eeeJ 8bb 8ee\)	[[	8c/	-sność	.	.	.	.	.	8ee\	-ni	.	.	.
*v	*v	*	*	*	*	*	*	*	*	*	*	*	*	*	*
!!linebreak:original
*	*	*	*	*	*	*	*	*	*	*	*	*	*	*
=151	=151	=151	=151	=151	=151	=151	=151	=151	=151	=151	=151	=151	=151	=151
*	*^	*	*	*	*	*	*	*	*	*	*	*	*	*
*	*	*	*	*	*	*	*	*	*	*^	*	*	*	*	*
!	!	!	!	!	!	!	!LO:DY:a:rj:t=f.	!	!	!LO:DY:a:rj:t=f.	!LO:DY:b:rj:t=f.	!	!	!	!	!LO:DY:a:rj
(8F#L 8FF#/	[4.fff#/	4aa#X 4ee\	sff	4.c#X/	ja-	.	f	[4.a#X/	ja-	f	f	[4.ff#\	ja-	.	.	f
8C#/	.	.	.	.	.	.	.	.	.	.	.	.	.	.	.	.
8F#/J)	.	8aa# 8ee\	>	.	.	.	.	.	.	.	.	.	.	.	.	.
(8A#X@\L	4fff#/]	4aa# 4ee\	.	4.f#X/	-sność	.	.	4a#/]	.	.	.	4ff#\]	.	.	.	.
*	*	*	*	*below	*	*	*	*	*	*	*	*	*	*	*	*
8c#\	.	.	.	.	.	.	.	.	.	.	.	.	.	.	.	.
8F#\J)	8eee/	8ee\	]	.	.	.	.	8a#/	-sność	.	.	8ee\	-sność	.	.	.
*	*	*	*	*	*	*	*	*	*	*v	*v	*	*	*	*	*
*	*v	*v	*	*	*	*	*	*	*	*	*	*	*	*	*
=152	=152	=152	=152	=152	=152	=152	=152	=152	=152	=152	=152	=152	=152	=152
*^	*	*	*	*	*	*	*	*	*	*	*	*	*	*
*	*	*	*	*	*	*	*	*	*ij	*	*	*	*	*	*
(8BB\L	4.ryy	(4eee 4ff# 4ee\	sf	4.f#/	.	.	.	4.b/	twa	.	(4ee^\	twa	.	.	.
8F#\	.	.	.	.	.	.	.	.	.	.	.	.	.	.	.
8B\J)	.	8ddd# 8dd#\	.	.	.	.	.	.	.	.	8dd#\)	.	.	.	.
8F#@/L	4.D#\	4ccc# 4cc#\	.	4d#X/	.	.	.	4f#/	niech	.	4cc#\	niech	.	.	.
8B@/	.	.	.	.	.	.	.	.	.	.	.	.	.	.	.
8d#@/J	.	8bb 8b\	.	8d#/	.	.	.	8f#/	nam,	.	8b\	nam,	.	.	.
*	*	*	*	*	*	*	*	*	*Xij	*	*	*	*	*	*
=153	=153	=153	=153	=153	=153	=153	=153	=153	=153	=153	=153	=153	=153	=153	=153
!	!	!LO:SIC:v:s=8aa# 8a#\	!	!	!	!	!	!	!	!	!LO:SIC:v:s=8a#/L	!	!	!	!
8G#@/L	4.E\	8aaL 8a\	.	4e/	.	.	.	4e/	.	.	8a/L	ży-	.	.	.
8B@/	.	8gg#' 8g#'\	.	.	.	.	.	.	.	.	8g#/J	.	.	.	.
!	!	!LO:SIC:v:s=8aa# 8a#\	!	!	!	!	!	!	!	!	!	!	!	!	!
!	!	!	!	!	!	!	!	!	!	!	!LO:SIC:v:s=8a#/	!	!	!	!
8c#@/J	.	8aa'J 8a'\	.	8e/	.	.	.	8e/	.	.	8a/	-cie	.	.	.
8E/L	4.C#\	8bb'L 8b'\	.	4e/	.	.	.	4g#/	.	.	8b\L	o-	.	.	.
8G#/	.	8ccc#' 8cc#'\	.	.	.	.	.	.	.	.	8cc#\J	.	.	.	.
!	!	!	!	!	!	!	!	!	!	!	!LO:TX:a:t=o	!	!	!	!
8B/J	.	8ddd#'J 8dd#'\)	.	8e/	.	.	.	8g#/	.	.	8dd#\	-pro-	.	.	.
=154	=154	=154	=154	=154	=154	=154	=154	=154	=154	=154	=154	=154	=154	=154	=154
8FF#/L	4.FF#\	(4ddd# 4dd#\	.	4d#/	.	.	.	4f#/	.	.	4dd#\	-mie-	.	.	.
8BB/	.	.	.	.	.	.	.	.	.	.	.	.	.	.	.
8F#/J	.	8ff#\)	.	8f#/	.	.	.	8f#/	.	.	8f#/	-ni	.	.	.
8FF#/L	4.FF#\	(4bb 4dd#\	.	4f#/	.	.	.	8f#/L	.	.	8b\L	bło-	.	.	.
8BB/	.	.	.	.	.	.	.	8b/J	.	.	8dd#\J	.	.	.	.
!	!	!LO:SIC:v:s=8aa# 8cc#\	!	!	!	!	!	!	!	!	!	!	!	!	!
8F#/J	.	8aa 8cc#\	.	8f#/	.	.	.	8cc#/	.	.	8ff#\	-ga	.	.	.
*v	*v	*	*	*	*	*	*	*	*	*	*	*	*	*	*
=155	=155	=155	=155	=155	=155	=155	=155	=155	=155	=155	=155	=155	=155	=155
*	*^	*	*	*	*	*	*	*	*	*	*	*	*	*
!LO:TX:b:t=36:color=red	!	!	!	!	!	!	!	!	!	!	!	!	!	!	!
!LO:TX:b:t=34:color=dodgerblue	!	!	!	!	!	!	!	!	!	!	!	!	!	!	!
8F#@ 8FF#/	[4.ddd#/	4ff#\	.	[>4.f#/	.	.	.	[4.dd#\	.	.	[4.ff#\	ja-	.	.	.
8F#'\L	.	.	.	.	.	.	.	.	.	.	.	.	.	.	.
!	!LO:TX:b:t=170:color=red	!	!	!	!	!	!	!	!	!	!	!	!	!	!
8F##X'\J	.	8ff# 8dd#\	.	.	.	.	.	.	.	.	.	.	.	.	.
8G#'\L	4ddd#/]	4ff# 4dd#\	.	4f#/]	.	.	.	4dd#\]	.	.	4ff#\]	.	.	.	.
8G##X'\	.	.	.	.	.	.	.	.	.	.	.	.	.	.	.
!LO:SIC:v:s=(8A#\J	!	!	!	!	!	!	!	!	!	!	!LO:SIC:v:s=8a#/	!	!	!	!
(8A\J	8ccc#/)	8ee 8cc#\	.	8e/	.	.	.	8cc#\	.	.	8a/	-sność	.	.	.
*	*v	*v	*	*	*	*	*	*	*	*	*	*	*	*	*
=156	=156	=156	=156	=156	=156	=156	=156	=156	=156	=156	=156	=156	=156	=156
8BL 8BB\)	4bb 4dd# 4b\	.	8d#/	.	.	.	8b\	.	.	8b/	twa.	.	.	.
8D#\	.	.	8r	.	.	.	8r	.	.	8r	.	.	.	.
!	!LO:TX:t=P:stem.color=dodgerblue:problem	!	!	!	!	!	!	!	!	!LO:TX:t=1ma	!	!	!	!
8F#\J	8ff#@ 8f#\@	.	8d#/	.	.	.	8f#/	.	.	8f#/	Z_niej	.	.	.
!	!LO:S:color=dodgerblue	!	!	!	!	!	!	!	!	!	!	!	!	!
8FF#/L	(4ff# 4dd# 4b 4f#\	.	8d#/	.	.	.	8f#/	.	.	4f#/	tyl-	.	.	.
8BB/	.	.	8r	.	.	.	8r	.	.	.	.	.	.	.
!!LO:TX:t=P:problem:repetycja.color=dodgerblue	!	!	!	!	!	!	!	!	!	!	!	!	!	!
8F#/J	8gg# 8g#\)	.	8d#/	.	.	.	8f#/	.	.	8g#/	-ko	.	.	.
*>B	*>B	*>B	*>B	*>B	*>B	*>B	*>B	*>B	*>B	*>B	*>B	*>B	*>B	*>B
=157:|!	=157:|!	=157:|!	=157:|!	=157:|!	=157:|!	=157:|!	=157:|!	=157:|!	=157:|!	=157:|!	=157:|!	=157:|!	=157:|!	=157:|!
8BL 8BB\	4bb 4dd# 4b\	.	[2.d#/	twa	.	.	[2.b\	twa.	.	(2.b\	twa.	.	.	.
8F#\	.	.	.	.	.	.	.	.	.	.	.	.	.	.
!	!LO:ART:color=dodgerblue	!	!	!	!	!	!	!	!	!	!	!	!	!
8B\J	8ff#' 8dd#'\	.	.	.	.	.	.	.	.	.	.	.	.	.
!	!LO:S:color=dodgerblue	!	!	!	!	!	!	!	!	!LO:TX:t=2da	!	!	!	!
8BB\L	(4ff# 4dd#\	.	.	.	.	.	.	.	.	.	.	.	.	.
8F#\	.	.	.	.	.	.	.	.	.	.	.	.	.	.
8B\J	8dd# 8b\)	.	.	.	.	.	.	.	.	.	.	.	.	.
!!linebreak:original
=158	=158	=158	=158	=158	=158	=158	=158	=158	=158	=158	=158	=158	=158	=158
8BB\L	4dd# 4b\	.	(>2.d#/]	.	.	.	2.b\_	.	.	(2.ff#\)	.	.	.	.
8F#\	.	.	.	.	.	.	.	.	.	.	.	.	.	.
8B\J	8bb 8dd#\	.	.	.	.	.	.	.	.	.	.	.	.	.
8BB\L	(4bb 4dd#\	.	.	.	.	.	.	.	.	.	.	.	.	.
8F#\	.	.	.	.	.	.	.	.	.	.	.	.	.	.
8B\J	8ff# 8dd#\)	.	.	.	.	.	.	.	.	.	.	.	.	.
=159	=159	=159	=159	=159	=159	=159	=159	=159	=159	=159	=159	=159	=159	=159
*rep	*	*	*	*	*	*	*	*	*	*	*	*	*	*
!	!	!	!LO:N:vis=2	!	!	!	!	!	!	!	!	!	!	!
8BB\L	4ff# 4dd#\	.	[>2.f#/)	.	.	.	2.b\_	.	.	[2.dd#\)	.	.	.	.
8F#\	.	.	.	.	.	.	.	.	.	.	.	.	.	.
8B\J	8ddd# 8ff#'\	.	.	.	.	.	.	.	.	.	.	.	.	.
8BB\L	(4ddd# 4ff#\	.	.	.	.	.	.	.	.	.	.	.	.	.
8F#\	.	.	.	.	.	.	.	.	.	.	.	.	.	.
8B\J	8bb 8dd#\)	.	.	.	.	.	.	.	.	.	.	.	.	.
*Xrep	*	*	*	*	*	*	*	*	*	*	*	*	*	*
=160	=160	=160	=160	=160	=160	=160	=160	=160	=160	=160	=160	=160	=160	=160
*rep	*	*	*	*	*	*	*	*	*	*	*	*	*	*
8BB\L	(8bbL 8dd#\	.	2.f#/]	.	.	.	2.b\_	.	.	2.dd#\]	.	.	.	.
8F#\	8ff#\	.	.	.	.	.	.	.	.	.	.	.	.	.
8B\J	8bb\J	.	.	.	.	.	.	.	.	.	.	.	.	.
8BB\L	8ddd#\L	.	.	.	.	.	.	.	.	.	.	.	.	.
8F#\	8fff#\	.	.	.	.	.	.	.	.	.	.	.	.	.
8B\J	8ddd#\J)	.	.	.	.	.	.	.	.	.	.	.	.	.
*Xrep	*	*	*	*	*	*	*	*	*	*	*	*	*	*
=161	=161	=161	=161	=161	=161	=161	=161	=161	=161	=161	=161	=161	=161	=161
4BB 4BBB/	2.bbTT\	.	4B/	.	.	.	4b\]	.	.	4b\	.	.	.	.
8r	.	.	8r	.	.	.	8r	.	.	8r	.	.	.	.
(4.e 4.B 4.G#\	.	.	4r	.	.	.	4r	.	.	4r	.	.	.	.
.	.	.	8r	.	.	.	8r	.	.	8r	.	.	.	.
=162	=162	=162	=162	=162	=162	=162	=162	=162	=162	=162	=162	=162	=162	=162
4.d# 4.B 4.F#\)	2.bbTTT\	.	2.r	.	.	.	2.r	.	.	2.r	.	.	.	.
(4.B 4.G# 4.E\	.	.	.	.	.	.	.	.	.	.	.	.	.	.
=163	=163	=163	=163	=163	=163	=163	=163	=163	=163	=163	=163	=163	=163	=163
4.B 4.F# 4.D#\)	2.bbTTTT\	.	2.r	.	.	.	2.r	.	.	2.r	.	.	.	.
!LO:N:vis=4	!	!	!	!	!	!	!	!	!	!	!	!	!	!
(>4.G# 4.E [4.BB/	.	.	.	.	.	.	.	.	.	.	.	.	.	.
=164	=164	=164	=164	=164	=164	=164	=164	=164	=164	=164	=164	=164	=164	=164
4.F# 4.D# 4.BB/]	2.bbTTTTT\	.	2.r	.	.	.	2.r	.	.	2.r	.	.	.	.
4.D# 4.BB 4.FF#/)	.	.	.	.	.	.	.	.	.	.	.	.	.	.
.	16qqaa#X/LL	.	.	.	.	.	.	.	.	.	.	.	.	.
.	16qqbb/JJ	.	.	.	.	.	.	.	.	.	.	.	.	.
=165	=165	=165	=165	=165	=165	=165	=165	=165	=165	=165	=165	=165	=165	=165
*	*8va	*	*	*	*	*	*	*	*	*	*	*	*	*
!	!	!	!LO:TX:t=6/:color=dodgerblue	!	!	!	!	!	!	!	!	!	!	!
8BB 8FF# 8BBB/	8bbb 8fff# 8ddd# 8bb\	sff	2.r	.	.	.	2.r	.	.	2.r	.	.	.	.
*	*X8va	*	*	*	*	*	*	*	*	*	*	*	*	*
!	!	!	!LO:TX:t=180:color=red	!	!	!	!	!	!	!	!	!	!	!
8r	8r	.	.	.	.	.	.	.	.	.	.	.	.	.
8r	8r	.	.	.	.	.	.	.	.	.	.	.	.	.
4r	4r	.	.	.	.	.	.	.	.	.	.	.	.	.
8r	8r	.	.	.	.	.	.	.	.	.	.	.	.	.
!	!	!	!LO:TX:t=/4/30/7.:color=dodgerblue	!	!	!	!	!	!	!	!	!	!	!
==	==	==	==	==	==	==	==	==	==	==	==	==	==	==
*-	*-	*-	*-	*-	*-	*-	*-	*-	*-	*-	*-	*-	*-	*-
!!!system-decoration: s1[(s2,s3)][(s4,s5)]
!!!RDF**kern: > = above
!!!RDF**kern: < = below
!!!RDF**kern: @ = marked note, color=dodgerblue
!!!RDF**kern: | = vertical stroke
!!!RDF**kern: i = editorial accidental
!!!ENC: Katarzyna Serwa
!!!END: 2021-10-17
!!!ENC: Andrzej Kubiczek
!!!END: 2021-09-16
